FilmLook_Portra400_SkinPriority_D65.cube
TITLE "Portra400_Identity_Baseline"
LUT_3D_SIZE 9
LUT_3D_INPUT_RANGE 0.0 1.0
# Portra 400 Film Emulation - IDENTITY (Rec.709 OETF)
# Input:  Cineon Film Log (0.0-1.0)
# Output: Rec.709 OETF / D65 - UNCLIPPED (shoulder > 1.0, toe < 0.0)
# Identity baseline: output = input (transparent) no range util lin 0.0-1.0
#
# Bake sem clamp: o clip [0,1] acontece DEPOIS da interpolacao, na conversao
# uint8 do encoder. Bakear com clamp cria knee duro no white reference Cineon
# (x=0.6696, off-grid) e a interpolacao trilinear abafa highlights em -7.5
# codes 8-bit no pico.
# Gerado por: tools/generate_portra400_baseline_lut.py
-0.025429 -0.025429 -0.025429
0.014098 -0.025429 -0.025429
0.115775 -0.025429 -0.025429
0.271233 -0.025429 -0.025429
0.496263 -0.025429 -0.025429
0.837836 -0.025429 -0.025429
1.364419 -0.025429 -0.025429
2.180743 -0.025429 -0.025429
3.448821 -0.025429 -0.025429
-0.025429 0.014098 -0.025429
0.014098 0.014098 -0.025429
0.115775 0.014098 -0.025429
0.271233 0.014098 -0.025429
0.496263 0.014098 -0.025429
0.837836 0.014098 -0.025429
1.364419 0.014098 -0.025429
2.180743 0.014098 -0.025429
3.448821 0.014098 -0.025429
-0.025429 0.115775 -0.025429
0.014098 0.115775 -0.025429
0.115775 0.115775 -0.025429
0.271233 0.115775 -0.025429
0.496263 0.115775 -0.025429
0.837836 0.115775 -0.025429
1.364419 0.115775 -0.025429
2.180743 0.115775 -0.025429
3.448821 0.115775 -0.025429
-0.025429 0.271233 -0.025429
0.014098 0.271233 -0.025429
0.115775 0.271233 -0.025429
0.271233 0.271233 -0.025429
0.496263 0.271233 -0.025429
0.837836 0.271233 -0.025429
1.364419 0.271233 -0.025429
2.180743 0.271233 -0.025429
3.448821 0.271233 -0.025429
-0.025429 0.496263 -0.025429
0.014098 0.496263 -0.025429
0.115775 0.496263 -0.025429
0.271233 0.496263 -0.025429
0.496263 0.496263 -0.025429
0.837836 0.496263 -0.025429
1.364419 0.496263 -0.025429
2.180743 0.496263 -0.025429
3.448821 0.496263 -0.025429
-0.025429 0.837836 -0.025429
0.014098 0.837836 -0.025429
0.115775 0.837836 -0.025429
0.271233 0.837836 -0.025429
0.496263 0.837836 -0.025429
0.837836 0.837836 -0.025429
1.364419 0.837836 -0.025429
2.180743 0.837836 -0.025429
3.448821 0.837836 -0.025429
-0.025429 1.364419 -0.025429
0.014098 1.364419 -0.025429
0.115775 1.364419 -0.025429
0.271233 1.364419 -0.025429
0.496263 1.364419 -0.025429
0.837836 1.364419 -0.025429
1.364419 1.364419 -0.025429
2.180743 1.364419 -0.025429
3.448821 1.364419 -0.025429
-0.025429 2.180743 -0.025429
0.014098 2.180743 -0.025429
0.115775 2.180743 -0.025429
0.271233 2.180743 -0.025429
0.496263 2.180743 -0.025429
0.837836 2.180743 -0.025429
1.364419 2.180743 -0.025429
2.180743 2.180743 -0.025429
3.448821 2.180743 -0.025429
-0.025429 3.448821 -0.025429
0.014098 3.448821 -0.025429
0.115775 3.448821 -0.025429
0.271233 3.448821 -0.025429
0.496263 3.448821 -0.025429
0.837836 3.448821 -0.025429
1.364419 3.448821 -0.025429
2.180743 3.448821 -0.025429
3.448821 3.448821 -0.025429
-0.025429 -0.025429 0.014098
0.014098 -0.025429 0.014098
0.115775 -0.025429 0.014098
0.271233 -0.025429 0.014098
0.496263 -0.025429 0.014098
0.837836 -0.025429 0.014098
1.364419 -0.025429 0.014098
2.180743 -0.025429 0.014098
3.448821 -0.025429 0.014098
-0.025429 0.014098 0.014098
0.014098 0.014098 0.014098
0.115775 0.014098 0.014098
0.271233 0.014098 0.014098
0.496263 0.014098 0.014098
0.837836 0.014098 0.014098
1.364419 0.014098 0.014098
2.180743 0.014098 0.014098
3.448821 0.014098 0.014098
-0.025429 0.115775 0.014098
0.014098 0.115775 0.014098
0.115775 0.115775 0.014098
0.271233 0.115775 0.014098
0.496263 0.115775 0.014098
0.837836 0.115775 0.014098
1.364419 0.115775 0.014098
2.180743 0.115775 0.014098
3.448821 0.115775 0.014098
-0.025429 0.271233 0.014098
0.014098 0.271233 0.014098
0.115775 0.271233 0.014098
0.271233 0.271233 0.014098
0.496263 0.271233 0.014098
0.837836 0.271233 0.014098
1.364419 0.271233 0.014098
2.180743 0.271233 0.014098
3.448821 0.271233 0.014098
-0.025429 0.496263 0.014098
0.014098 0.496263 0.014098
0.115775 0.496263 0.014098
0.271233 0.496263 0.014098
0.496263 0.496263 0.014098
0.837836 0.496263 0.014098
1.364419 0.496263 0.014098
2.180743 0.496263 0.014098
3.448821 0.496263 0.014098
-0.025429 0.837836 0.014098
0.014098 0.837836 0.014098
0.115775 0.837836 0.014098
0.271233 0.837836 0.014098
0.496263 0.837836 0.014098
0.837836 0.837836 0.014098
1.364419 0.837836 0.014098
2.180743 0.837836 0.014098
3.448821 0.837836 0.014098
-0.025429 1.364419 0.014098
0.014098 1.364419 0.014098
0.115775 1.364419 0.014098
0.271233 1.364419 0.014098
0.496263 1.364419 0.014098
0.837836 1.364419 0.014098
1.364419 1.364419 0.014098
2.180743 1.364419 0.014098
3.448821 1.364419 0.014098
-0.025429 2.180743 0.014098
0.014098 2.180743 0.014098
0.115775 2.180743 0.014098
0.271233 2.180743 0.014098
0.496263 2.180743 0.014098
0.837836 2.180743 0.014098
1.364419 2.180743 0.014098
2.180743 2.180743 0.014098
3.448821 2.180743 0.014098
-0.025429 3.448821 0.014098
0.014098 3.448821 0.014098
0.115775 3.448821 0.014098
0.271233 3.448821 0.014098
0.496263 3.448821 0.014098
0.837836 3.448821 0.014098
1.364419 3.448821 0.014098
2.180743 3.448821 0.014098
3.448821 3.448821 0.014098
-0.025429 -0.025429 0.115775
0.014098 -0.025429 0.115775
0.115775 -0.025429 0.115775
0.271233 -0.025429 0.115775
0.496263 -0.025429 0.115775
0.837836 -0.025429 0.115775
1.364419 -0.025429 0.115775
2.180743 -0.025429 0.115775
3.448821 -0.025429 0.115775
-0.025429 0.014098 0.115775
0.014098 0.014098 0.115775
0.115775 0.014098 0.115775
0.271233 0.014098 0.115775
0.496263 0.014098 0.115775
0.837836 0.014098 0.115775
1.364419 0.014098 0.115775
2.180743 0.014098 0.115775
3.448821 0.014098 0.115775
-0.025429 0.115775 0.115775
0.014098 0.115775 0.115775
0.115775 0.115775 0.115775
0.271233 0.115775 0.115775
0.496263 0.115775 0.115775
0.837836 0.115775 0.115775
1.364419 0.115775 0.115775
2.180743 0.115775 0.115775
3.448821 0.115775 0.115775
-0.025429 0.271233 0.115775
0.014098 0.271233 0.115775
0.115775 0.271233 0.115775
0.271233 0.271233 0.115775
0.496263 0.271233 0.115775
0.837836 0.271233 0.115775
1.364419 0.271233 0.115775
2.180743 0.271233 0.115775
3.448821 0.271233 0.115775
-0.025429 0.496263 0.115775
0.014098 0.496263 0.115775
0.115775 0.496263 0.115775
0.271233 0.496263 0.115775
0.496263 0.496263 0.115775
0.837836 0.496263 0.115775
1.364419 0.496263 0.115775
2.180743 0.496263 0.115775
3.448821 0.496263 0.115775
-0.025429 0.837836 0.115775
0.014098 0.837836 0.115775
0.115775 0.837836 0.115775
0.271233 0.837836 0.115775
0.496263 0.837836 0.115775
0.837836 0.837836 0.115775
1.364419 0.837836 0.115775
2.180743 0.837836 0.115775
3.448821 0.837836 0.115775
-0.025429 1.364419 0.115775
0.014098 1.364419 0.115775
0.115775 1.364419 0.115775
0.271233 1.364419 0.115775
0.496263 1.364419 0.115775
0.837836 1.364419 0.115775
1.364419 1.364419 0.115775
2.180743 1.364419 0.115775
3.448821 1.364419 0.115775
-0.025429 2.180743 0.115775
0.014098 2.180743 0.115775
0.115775 2.180743 0.115775
0.271233 2.180743 0.115775
0.496263 2.180743 0.115775
0.837836 2.180743 0.115775
1.364419 2.180743 0.115775
2.180743 2.180743 0.115775
3.448821 2.180743 0.115775
-0.025429 3.448821 0.115775
0.014098 3.448821 0.115775
0.115775 3.448821 0.115775
0.271233 3.448821 0.115775
0.496263 3.448821 0.115775
0.837836 3.448821 0.115775
1.364419 3.448821 0.115775
2.180743 3.448821 0.115775
3.448821 3.448821 0.115775
-0.025429 -0.025429 0.271233
0.014098 -0.025429 0.271233
0.115775 -0.025429 0.271233
0.271233 -0.025429 0.271233
0.496263 -0.025429 0.271233
0.837836 -0.025429 0.271233
1.364419 -0.025429 0.271233
2.180743 -0.025429 0.271233
3.448821 -0.025429 0.271233
-0.025429 0.014098 0.271233
0.014098 0.014098 0.271233
0.115775 0.014098 0.271233
0.271233 0.014098 0.271233
0.496263 0.014098 0.271233
0.837836 0.014098 0.271233
1.364419 0.014098 0.271233
2.180743 0.014098 0.271233
3.448821 0.014098 0.271233
-0.025429 0.115775 0.271233
0.014098 0.115775 0.271233
0.115775 0.115775 0.271233
0.271233 0.115775 0.271233
0.496263 0.115775 0.271233
0.837836 0.115775 0.271233
1.364419 0.115775 0.271233
2.180743 0.115775 0.271233
3.448821 0.115775 0.271233
-0.025429 0.271233 0.271233
0.014098 0.271233 0.271233
0.115775 0.271233 0.271233
0.271233 0.271233 0.271233
0.496263 0.271233 0.271233
0.837836 0.271233 0.271233
1.364419 0.271233 0.271233
2.180743 0.271233 0.271233
3.448821 0.271233 0.271233
-0.025429 0.496263 0.271233
0.014098 0.496263 0.271233
0.115775 0.496263 0.271233
0.271233 0.496263 0.271233
0.496263 0.496263 0.271233
0.837836 0.496263 0.271233
1.364419 0.496263 0.271233
2.180743 0.496263 0.271233
3.448821 0.496263 0.271233
-0.025429 0.837836 0.271233
0.014098 0.837836 0.271233
0.115775 0.837836 0.271233
0.271233 0.837836 0.271233
0.496263 0.837836 0.271233
0.837836 0.837836 0.271233
1.364419 0.837836 0.271233
2.180743 0.837836 0.271233
3.448821 0.837836 0.271233
-0.025429 1.364419 0.271233
0.014098 1.364419 0.271233
0.115775 1.364419 0.271233
0.271233 1.364419 0.271233
0.496263 1.364419 0.271233
0.837836 1.364419 0.271233
1.364419 1.364419 0.271233
2.180743 1.364419 0.271233
3.448821 1.364419 0.271233
-0.025429 2.180743 0.271233
0.014098 2.180743 0.271233
0.115775 2.180743 0.271233
0.271233 2.180743 0.271233
0.496263 2.180743 0.271233
0.837836 2.180743 0.271233
1.364419 2.180743 0.271233
2.180743 2.180743 0.271233
3.448821 2.180743 0.271233
-0.025429 3.448821 0.271233
0.014098 3.448821 0.271233
0.115775 3.448821 0.271233
0.271233 3.448821 0.271233
0.496263 3.448821 0.271233
0.837836 3.448821 0.271233
1.364419 3.448821 0.271233
2.180743 3.448821 0.271233
3.448821 3.448821 0.271233
-0.025429 -0.025429 0.496263
0.014098 -0.025429 0.496263
0.115775 -0.025429 0.496263
0.271233 -0.025429 0.496263
0.496263 -0.025429 0.496263
0.837836 -0.025429 0.496263
1.364419 -0.025429 0.496263
2.180743 -0.025429 0.496263
3.448821 -0.025429 0.496263
-0.025429 0.014098 0.496263
0.014098 0.014098 0.496263
0.115775 0.014098 0.496263
0.271233 0.014098 0.496263
0.496263 0.014098 0.496263
0.837836 0.014098 0.496263
1.364419 0.014098 0.496263
2.180743 0.014098 0.496263
3.448821 0.014098 0.496263
-0.025429 0.115775 0.496263
0.014098 0.115775 0.496263
0.115775 0.115775 0.496263
0.271233 0.115775 0.496263
0.496263 0.115775 0.496263
0.837836 0.115775 0.496263
1.364419 0.115775 0.496263
2.180743 0.115775 0.496263
3.448821 0.115775 0.496263
-0.025429 0.271233 0.496263
0.014098 0.271233 0.496263
0.115775 0.271233 0.496263
0.271233 0.271233 0.496263
0.496263 0.271233 0.496263
0.837836 0.271233 0.496263
1.364419 0.271233 0.496263
2.180743 0.271233 0.496263
3.448821 0.271233 0.496263
-0.025429 0.496263 0.496263
0.014098 0.496263 0.496263
0.115775 0.496263 0.496263
0.271233 0.496263 0.496263
0.496263 0.496263 0.496263
0.837836 0.496263 0.496263
1.364419 0.496263 0.496263
2.180743 0.496263 0.496263
3.448821 0.496263 0.496263
-0.025429 0.837836 0.496263
0.014098 0.837836 0.496263
0.115775 0.837836 0.496263
0.271233 0.837836 0.496263
0.496263 0.837836 0.496263
0.837836 0.837836 0.496263
1.364419 0.837836 0.496263
2.180743 0.837836 0.496263
3.448821 0.837836 0.496263
-0.025429 1.364419 0.496263
0.014098 1.364419 0.496263
0.115775 1.364419 0.496263
0.271233 1.364419 0.496263
0.496263 1.364419 0.496263
0.837836 1.364419 0.496263
1.364419 1.364419 0.496263
2.180743 1.364419 0.496263
3.448821 1.364419 0.496263
-0.025429 2.180743 0.496263
0.014098 2.180743 0.496263
0.115775 2.180743 0.496263
0.271233 2.180743 0.496263
0.496263 2.180743 0.496263
0.837836 2.180743 0.496263
1.364419 2.180743 0.496263
2.180743 2.180743 0.496263
3.448821 2.180743 0.496263
-0.025429 3.448821 0.496263
0.014098 3.448821 0.496263
0.115775 3.448821 0.496263
0.271233 3.448821 0.496263
0.496263 3.448821 0.496263
0.837836 3.448821 0.496263
1.364419 3.448821 0.496263
2.180743 3.448821 0.496263
3.448821 3.448821 0.496263
-0.025429 -0.025429 0.837836
0.014098 -0.025429 0.837836
0.115775 -0.025429 0.837836
0.271233 -0.025429 0.837836
0.496263 -0.025429 0.837836
0.837836 -0.025429 0.837836
1.364419 -0.025429 0.837836
2.180743 -0.025429 0.837836
3.448821 -0.025429 0.837836
-0.025429 0.014098 0.837836
0.014098 0.014098 0.837836
0.115775 0.014098 0.837836
0.271233 0.014098 0.837836
0.496263 0.014098 0.837836
0.837836 0.014098 0.837836
1.364419 0.014098 0.837836
2.180743 0.014098 0.837836
3.448821 0.014098 0.837836
-0.025429 0.115775 0.837836
0.014098 0.115775 0.837836
0.115775 0.115775 0.837836
0.271233 0.115775 0.837836
0.496263 0.115775 0.837836
0.837836 0.115775 0.837836
1.364419 0.115775 0.837836
2.180743 0.115775 0.837836
3.448821 0.115775 0.837836
-0.025429 0.271233 0.837836
0.014098 0.271233 0.837836
0.115775 0.271233 0.837836
0.271233 0.271233 0.837836
0.496263 0.271233 0.837836
0.837836 0.271233 0.837836
1.364419 0.271233 0.837836
2.180743 0.271233 0.837836
3.448821 0.271233 0.837836
-0.025429 0.496263 0.837836
0.014098 0.496263 0.837836
0.115775 0.496263 0.837836
0.271233 0.496263 0.837836
0.496263 0.496263 0.837836
0.837836 0.496263 0.837836
1.364419 0.496263 0.837836
2.180743 0.496263 0.837836
3.448821 0.496263 0.837836
-0.025429 0.837836 0.837836
0.014098 0.837836 0.837836
0.115775 0.837836 0.837836
0.271233 0.837836 0.837836
0.496263 0.837836 0.837836
0.837836 0.837836 0.837836
1.364419 0.837836 0.837836
2.180743 0.837836 0.837836
3.448821 0.837836 0.837836
-0.025429 1.364419 0.837836
0.014098 1.364419 0.837836
0.115775 1.364419 0.837836
0.271233 1.364419 0.837836
0.496263 1.364419 0.837836
0.837836 1.364419 0.837836
1.364419 1.364419 0.837836
2.180743 1.364419 0.837836
3.448821 1.364419 0.837836
-0.025429 2.180743 0.837836
0.014098 2.180743 0.837836
0.115775 2.180743 0.837836
0.271233 2.180743 0.837836
0.496263 2.180743 0.837836
0.837836 2.180743 0.837836
1.364419 2.180743 0.837836
2.180743 2.180743 0.837836
3.448821 2.180743 0.837836
-0.025429 3.448821 0.837836
0.014098 3.448821 0.837836
0.115775 3.448821 0.837836
0.271233 3.448821 0.837836
0.496263 3.448821 0.837836
0.837836 3.448821 0.837836
1.364419 3.448821 0.837836
2.180743 3.448821 0.837836
3.448821 3.448821 0.837836
-0.025429 -0.025429 1.364419
0.014098 -0.025429 1.364419
0.115775 -0.025429 1.364419
0.271233 -0.025429 1.364419
0.496263 -0.025429 1.364419
0.837836 -0.025429 1.364419
1.364419 -0.025429 1.364419
2.180743 -0.025429 1.364419
3.448821 -0.025429 1.364419
-0.025429 0.014098 1.364419
0.014098 0.014098 1.364419
0.115775 0.014098 1.364419
0.271233 0.014098 1.364419
0.496263 0.014098 1.364419
0.837836 0.014098 1.364419
1.364419 0.014098 1.364419
2.180743 0.014098 1.364419
3.448821 0.014098 1.364419
-0.025429 0.115775 1.364419
0.014098 0.115775 1.364419
0.115775 0.115775 1.364419
0.271233 0.115775 1.364419
0.496263 0.115775 1.364419
0.837836 0.115775 1.364419
1.364419 0.115775 1.364419
2.180743 0.115775 1.364419
3.448821 0.115775 1.364419
-0.025429 0.271233 1.364419
0.014098 0.271233 1.364419
0.115775 0.271233 1.364419
0.271233 0.271233 1.364419
0.496263 0.271233 1.364419
0.837836 0.271233 1.364419
1.364419 0.271233 1.364419
2.180743 0.271233 1.364419
3.448821 0.271233 1.364419
-0.025429 0.496263 1.364419
0.014098 0.496263 1.364419
0.115775 0.496263 1.364419
0.271233 0.496263 1.364419
0.496263 0.496263 1.364419
0.837836 0.496263 1.364419
1.364419 0.496263 1.364419
2.180743 0.496263 1.364419
3.448821 0.496263 1.364419
-0.025429 0.837836 1.364419
0.014098 0.837836 1.364419
0.115775 0.837836 1.364419
0.271233 0.837836 1.364419
0.496263 0.837836 1.364419
0.837836 0.837836 1.364419
1.364419 0.837836 1.364419
2.180743 0.837836 1.364419
3.448821 0.837836 1.364419
-0.025429 1.364419 1.364419
0.014098 1.364419 1.364419
0.115775 1.364419 1.364419
0.271233 1.364419 1.364419
0.496263 1.364419 1.364419
0.837836 1.364419 1.364419
1.364419 1.364419 1.364419
2.180743 1.364419 1.364419
3.448821 1.364419 1.364419
-0.025429 2.180743 1.364419
0.014098 2.180743 1.364419
0.115775 2.180743 1.364419
0.271233 2.180743 1.364419
0.496263 2.180743 1.364419
0.837836 2.180743 1.364419
1.364419 2.180743 1.364419
2.180743 2.180743 1.364419
3.448821 2.180743 1.364419
-0.025429 3.448821 1.364419
0.014098 3.448821 1.364419
0.115775 3.448821 1.364419
0.271233 3.448821 1.364419
0.496263 3.448821 1.364419
0.837836 3.448821 1.364419
1.364419 3.448821 1.364419
2.180743 3.448821 1.364419
3.448821 3.448821 1.364419
-0.025429 -0.025429 2.180743
0.014098 -0.025429 2.180743
0.115775 -0.025429 2.180743
0.271233 -0.025429 2.180743
0.496263 -0.025429 2.180743
0.837836 -0.025429 2.180743
1.364419 -0.025429 2.180743
2.180743 -0.025429 2.180743
3.448821 -0.025429 2.180743
-0.025429 0.014098 2.180743
0.014098 0.014098 2.180743
0.115775 0.014098 2.180743
0.271233 0.014098 2.180743
0.496263 0.014098 2.180743
0.837836 0.014098 2.180743
1.364419 0.014098 2.180743
2.180743 0.014098 2.180743
3.448821 0.014098 2.180743
-0.025429 0.115775 2.180743
0.014098 0.115775 2.180743
0.115775 0.115775 2.180743
0.271233 0.115775 2.180743
0.496263 0.115775 2.180743
0.837836 0.115775 2.180743
1.364419 0.115775 2.180743
2.180743 0.115775 2.180743
3.448821 0.115775 2.180743
-0.025429 0.271233 2.180743
0.014098 0.271233 2.180743
0.115775 0.271233 2.180743
0.271233 0.271233 2.180743
0.496263 0.271233 2.180743
0.837836 0.271233 2.180743
1.364419 0.271233 2.180743
2.180743 0.271233 2.180743
3.448821 0.271233 2.180743
-0.025429 0.496263 2.180743
0.014098 0.496263 2.180743
0.115775 0.496263 2.180743
0.271233 0.496263 2.180743
0.496263 0.496263 2.180743
0.837836 0.496263 2.180743
1.364419 0.496263 2.180743
2.180743 0.496263 2.180743
3.448821 0.496263 2.180743
-0.025429 0.837836 2.180743
0.014098 0.837836 2.180743
0.115775 0.837836 2.180743
0.271233 0.837836 2.180743
0.496263 0.837836 2.180743
0.837836 0.837836 2.180743
1.364419 0.837836 2.180743
2.180743 0.837836 2.180743
3.448821 0.837836 2.180743
-0.025429 1.364419 2.180743
0.014098 1.364419 2.180743
0.115775 1.364419 2.180743
0.271233 1.364419 2.180743
0.496263 1.364419 2.180743
0.837836 1.364419 2.180743
1.364419 1.364419 2.180743
2.180743 1.364419 2.180743
3.448821 1.364419 2.180743
-0.025429 2.180743 2.180743
0.014098 2.180743 2.180743
0.115775 2.180743 2.180743
0.271233 2.180743 2.180743
0.496263 2.180743 2.180743
0.837836 2.180743 2.180743
1.364419 2.180743 2.180743
2.180743 2.180743 2.180743
3.448821 2.180743 2.180743
-0.025429 3.448821 2.180743
0.014098 3.448821 2.180743
0.115775 3.448821 2.180743
0.271233 3.448821 2.180743
0.496263 3.448821 2.180743
0.837836 3.448821 2.180743
1.364419 3.448821 2.180743
2.180743 3.448821 2.180743
3.448821 3.448821 2.180743
-0.025429 -0.025429 3.448821
0.014098 -0.025429 3.448821
0.115775 -0.025429 3.448821
0.271233 -0.025429 3.448821
0.496263 -0.025429 3.448821
0.837836 -0.025429 3.448821
1.364419 -0.025429 3.448821
2.180743 -0.025429 3.448821
3.448821 -0.025429 3.448821
-0.025429 0.014098 3.448821
0.014098 0.014098 3.448821
0.115775 0.014098 3.448821
0.271233 0.014098 3.448821
0.496263 0.014098 3.448821
0.837836 0.014098 3.448821
1.364419 0.014098 3.448821
2.180743 0.014098 3.448821
3.448821 0.014098 3.448821
-0.025429 0.115775 3.448821
0.014098 0.115775 3.448821
0.115775 0.115775 3.448821
0.271233 0.115775 3.448821
0.496263 0.115775 3.448821
0.837836 0.115775 3.448821
1.364419 0.115775 3.448821
2.180743 0.115775 3.448821
3.448821 0.115775 3.448821
-0.025429 0.271233 3.448821
0.014098 0.271233 3.448821
0.115775 0.271233 3.448821
0.271233 0.271233 3.448821
0.496263 0.271233 3.448821
0.837836 0.271233 3.448821
1.364419 0.271233 3.448821
2.180743 0.271233 3.448821
3.448821 0.271233 3.448821
-0.025429 0.496263 3.448821
0.014098 0.496263 3.448821
0.115775 0.496263 3.448821
0.271233 0.496263 3.448821
0.496263 0.496263 3.448821
0.837836 0.496263 3.448821
1.364419 0.496263 3.448821
2.180743 0.496263 3.448821
3.448821 0.496263 3.448821
-0.025429 0.837836 3.448821
0.014098 0.837836 3.448821
0.115775 0.837836 3.448821
0.271233 0.837836 3.448821
0.496263 0.837836 3.448821
0.837836 0.837836 3.448821
1.364419 0.837836 3.448821
2.180743 0.837836 3.448821
3.448821 0.837836 3.448821
-0.025429 1.364419 3.448821
0.014098 1.364419 3.448821
0.115775 1.364419 3.448821
0.271233 1.364419 3.448821
0.496263 1.364419 3.448821
0.837836 1.364419 3.448821
1.364419 1.364419 3.448821
2.180743 1.364419 3.448821
3.448821 1.364419 3.448821
-0.025429 2.180743 3.448821
0.014098 2.180743 3.448821
0.115775 2.180743 3.448821
0.271233 2.180743 3.448821
0.496263 2.180743 3.448821
0.837836 2.180743 3.448821
1.364419 2.180743 3.448821
2.180743 2.180743 3.448821
3.448821 2.180743 3.448821
-0.025429 3.448821 3.448821
0.014098 3.448821 3.448821
0.115775 3.448821 3.448821
0.271233 3.448821 3.448821
0.496263 3.448821 3.448821
0.837836 3.448821 3.448821
1.364419 3.448821 3.448821
2.180743 3.448821 3.448821
3.448821 3.448821 3.448821
