FilmLook_Portra400_SkinPriority_D65.cube
TITLE "Portra400_Identity_Baseline"
LUT_3D_SIZE 33
LUT_3D_INPUT_RANGE 0.0 1.0
# Portra 400 Film Emulation - IDENTITY (Rec.709 OETF)
# Input:  Cineon Film Log (0.0-1.0)
# Output: Rec.709 OETF / D65 - UNCLIPPED (shoulder > 1.0, toe < 0.0)
# Identity baseline: output = input (transparent) no range util lin 0.0-1.0
#
# Bake sem clamp: o clip [0,1] acontece DEPOIS da interpolacao, na conversao
# uint8 do encoder. Bakear com clamp cria knee duro no white reference Cineon
# (x=0.6696, off-grid) e a interpolacao trilinear abafa highlights em -7.5
# codes 8-bit no pico.
# Gerado por: tools/generate_portra400_baseline_lut.py
-0.025429 -0.025429 -0.025429
-0.018840 -0.025429 -0.025429
-0.010420 -0.025429 -0.025429
0.000343 -0.025429 -0.025429
0.014098 -0.025429 -0.025429
0.031679 -0.025429 -0.025429
0.054149 -0.025429 -0.025429
0.083106 -0.025429 -0.025429
0.115775 -0.025429 -0.025429
0.150270 -0.025429 -0.025429
0.187274 -0.025429 -0.025429
0.227399 -0.025429 -0.025429
0.271233 -0.025429 -0.025429
0.319378 -0.025429 -0.025429
0.372467 -0.025429 -0.025429
0.431182 -0.025429 -0.025429
0.496263 -0.025429 -0.025429
0.568524 -0.025429 -0.025429
0.648861 -0.025429 -0.025429
0.738265 -0.025429 -0.025429
0.837836 -0.025429 -0.025429
0.948798 -0.025429 -0.025429
1.072510 -0.025429 -0.025429
1.210488 -0.025429 -0.025429
1.364419 -0.025429 -0.025429
1.536187 -0.025429 -0.025429
1.727890 -0.025429 -0.025429
1.941870 -0.025429 -0.025429
2.180743 -0.025429 -0.025429
2.447423 -0.025429 -0.025429
2.745169 -0.025429 -0.025429
3.077616 -0.025429 -0.025429
3.448821 -0.025429 -0.025429
-0.025429 -0.018840 -0.025429
-0.018840 -0.018840 -0.025429
-0.010420 -0.018840 -0.025429
0.000343 -0.018840 -0.025429
0.014098 -0.018840 -0.025429
0.031679 -0.018840 -0.025429
0.054149 -0.018840 -0.025429
0.083106 -0.018840 -0.025429
0.115775 -0.018840 -0.025429
0.150270 -0.018840 -0.025429
0.187274 -0.018840 -0.025429
0.227399 -0.018840 -0.025429
0.271233 -0.018840 -0.025429
0.319378 -0.018840 -0.025429
0.372467 -0.018840 -0.025429
0.431182 -0.018840 -0.025429
0.496263 -0.018840 -0.025429
0.568524 -0.018840 -0.025429
0.648861 -0.018840 -0.025429
0.738265 -0.018840 -0.025429
0.837836 -0.018840 -0.025429
0.948798 -0.018840 -0.025429
1.072510 -0.018840 -0.025429
1.210488 -0.018840 -0.025429
1.364419 -0.018840 -0.025429
1.536187 -0.018840 -0.025429
1.727890 -0.018840 -0.025429
1.941870 -0.018840 -0.025429
2.180743 -0.018840 -0.025429
2.447423 -0.018840 -0.025429
2.745169 -0.018840 -0.025429
3.077616 -0.018840 -0.025429
3.448821 -0.018840 -0.025429
-0.025429 -0.010420 -0.025429
-0.018840 -0.010420 -0.025429
-0.010420 -0.010420 -0.025429
0.000343 -0.010420 -0.025429
0.014098 -0.010420 -0.025429
0.031679 -0.010420 -0.025429
0.054149 -0.010420 -0.025429
0.083106 -0.010420 -0.025429
0.115775 -0.010420 -0.025429
0.150270 -0.010420 -0.025429
0.187274 -0.010420 -0.025429
0.227399 -0.010420 -0.025429
0.271233 -0.010420 -0.025429
0.319378 -0.010420 -0.025429
0.372467 -0.010420 -0.025429
0.431182 -0.010420 -0.025429
0.496263 -0.010420 -0.025429
0.568524 -0.010420 -0.025429
0.648861 -0.010420 -0.025429
0.738265 -0.010420 -0.025429
0.837836 -0.010420 -0.025429
0.948798 -0.010420 -0.025429
1.072510 -0.010420 -0.025429
1.210488 -0.010420 -0.025429
1.364419 -0.010420 -0.025429
1.536187 -0.010420 -0.025429
1.727890 -0.010420 -0.025429
1.941870 -0.010420 -0.025429
2.180743 -0.010420 -0.025429
2.447423 -0.010420 -0.025429
2.745169 -0.010420 -0.025429
3.077616 -0.010420 -0.025429
3.448821 -0.010420 -0.025429
-0.025429 0.000343 -0.025429
-0.018840 0.000343 -0.025429
-0.010420 0.000343 -0.025429
0.000343 0.000343 -0.025429
0.014098 0.000343 -0.025429
0.031679 0.000343 -0.025429
0.054149 0.000343 -0.025429
0.083106 0.000343 -0.025429
0.115775 0.000343 -0.025429
0.150270 0.000343 -0.025429
0.187274 0.000343 -0.025429
0.227399 0.000343 -0.025429
0.271233 0.000343 -0.025429
0.319378 0.000343 -0.025429
0.372467 0.000343 -0.025429
0.431182 0.000343 -0.025429
0.496263 0.000343 -0.025429
0.568524 0.000343 -0.025429
0.648861 0.000343 -0.025429
0.738265 0.000343 -0.025429
0.837836 0.000343 -0.025429
0.948798 0.000343 -0.025429
1.072510 0.000343 -0.025429
1.210488 0.000343 -0.025429
1.364419 0.000343 -0.025429
1.536187 0.000343 -0.025429
1.727890 0.000343 -0.025429
1.941870 0.000343 -0.025429
2.180743 0.000343 -0.025429
2.447423 0.000343 -0.025429
2.745169 0.000343 -0.025429
3.077616 0.000343 -0.025429
3.448821 0.000343 -0.025429
-0.025429 0.014098 -0.025429
-0.018840 0.014098 -0.025429
-0.010420 0.014098 -0.025429
0.000343 0.014098 -0.025429
0.014098 0.014098 -0.025429
0.031679 0.014098 -0.025429
0.054149 0.014098 -0.025429
0.083106 0.014098 -0.025429
0.115775 0.014098 -0.025429
0.150270 0.014098 -0.025429
0.187274 0.014098 -0.025429
0.227399 0.014098 -0.025429
0.271233 0.014098 -0.025429
0.319378 0.014098 -0.025429
0.372467 0.014098 -0.025429
0.431182 0.014098 -0.025429
0.496263 0.014098 -0.025429
0.568524 0.014098 -0.025429
0.648861 0.014098 -0.025429
0.738265 0.014098 -0.025429
0.837836 0.014098 -0.025429
0.948798 0.014098 -0.025429
1.072510 0.014098 -0.025429
1.210488 0.014098 -0.025429
1.364419 0.014098 -0.025429
1.536187 0.014098 -0.025429
1.727890 0.014098 -0.025429
1.941870 0.014098 -0.025429
2.180743 0.014098 -0.025429
2.447423 0.014098 -0.025429
2.745169 0.014098 -0.025429
3.077616 0.014098 -0.025429
3.448821 0.014098 -0.025429
-0.025429 0.031679 -0.025429
-0.018840 0.031679 -0.025429
-0.010420 0.031679 -0.025429
0.000343 0.031679 -0.025429
0.014098 0.031679 -0.025429
0.031679 0.031679 -0.025429
0.054149 0.031679 -0.025429
0.083106 0.031679 -0.025429
0.115775 0.031679 -0.025429
0.150270 0.031679 -0.025429
0.187274 0.031679 -0.025429
0.227399 0.031679 -0.025429
0.271233 0.031679 -0.025429
0.319378 0.031679 -0.025429
0.372467 0.031679 -0.025429
0.431182 0.031679 -0.025429
0.496263 0.031679 -0.025429
0.568524 0.031679 -0.025429
0.648861 0.031679 -0.025429
0.738265 0.031679 -0.025429
0.837836 0.031679 -0.025429
0.948798 0.031679 -0.025429
1.072510 0.031679 -0.025429
1.210488 0.031679 -0.025429
1.364419 0.031679 -0.025429
1.536187 0.031679 -0.025429
1.727890 0.031679 -0.025429
1.941870 0.031679 -0.025429
2.180743 0.031679 -0.025429
2.447423 0.031679 -0.025429
2.745169 0.031679 -0.025429
3.077616 0.031679 -0.025429
3.448821 0.031679 -0.025429
-0.025429 0.054149 -0.025429
-0.018840 0.054149 -0.025429
-0.010420 0.054149 -0.025429
0.000343 0.054149 -0.025429
0.014098 0.054149 -0.025429
0.031679 0.054149 -0.025429
0.054149 0.054149 -0.025429
0.083106 0.054149 -0.025429
0.115775 0.054149 -0.025429
0.150270 0.054149 -0.025429
0.187274 0.054149 -0.025429
0.227399 0.054149 -0.025429
0.271233 0.054149 -0.025429
0.319378 0.054149 -0.025429
0.372467 0.054149 -0.025429
0.431182 0.054149 -0.025429
0.496263 0.054149 -0.025429
0.568524 0.054149 -0.025429
0.648861 0.054149 -0.025429
0.738265 0.054149 -0.025429
0.837836 0.054149 -0.025429
0.948798 0.054149 -0.025429
1.072510 0.054149 -0.025429
1.210488 0.054149 -0.025429
1.364419 0.054149 -0.025429
1.536187 0.054149 -0.025429
1.727890 0.054149 -0.025429
1.941870 0.054149 -0.025429
2.180743 0.054149 -0.025429
2.447423 0.054149 -0.025429
2.745169 0.054149 -0.025429
3.077616 0.054149 -0.025429
3.448821 0.054149 -0.025429
-0.025429 0.083106 -0.025429
-0.018840 0.083106 -0.025429
-0.010420 0.083106 -0.025429
0.000343 0.083106 -0.025429
0.014098 0.083106 -0.025429
0.031679 0.083106 -0.025429
0.054149 0.083106 -0.025429
0.083106 0.083106 -0.025429
0.115775 0.083106 -0.025429
0.150270 0.083106 -0.025429
0.187274 0.083106 -0.025429
0.227399 0.083106 -0.025429
0.271233 0.083106 -0.025429
0.319378 0.083106 -0.025429
0.372467 0.083106 -0.025429
0.431182 0.083106 -0.025429
0.496263 0.083106 -0.025429
0.568524 0.083106 -0.025429
0.648861 0.083106 -0.025429
0.738265 0.083106 -0.025429
0.837836 0.083106 -0.025429
0.948798 0.083106 -0.025429
1.072510 0.083106 -0.025429
1.210488 0.083106 -0.025429
1.364419 0.083106 -0.025429
1.536187 0.083106 -0.025429
1.727890 0.083106 -0.025429
1.941870 0.083106 -0.025429
2.180743 0.083106 -0.025429
2.447423 0.083106 -0.025429
2.745169 0.083106 -0.025429
3.077616 0.083106 -0.025429
3.448821 0.083106 -0.025429
-0.025429 0.115775 -0.025429
-0.018840 0.115775 -0.025429
-0.010420 0.115775 -0.025429
0.000343 0.115775 -0.025429
0.014098 0.115775 -0.025429
0.031679 0.115775 -0.025429
0.054149 0.115775 -0.025429
0.083106 0.115775 -0.025429
0.115775 0.115775 -0.025429
0.150270 0.115775 -0.025429
0.187274 0.115775 -0.025429
0.227399 0.115775 -0.025429
0.271233 0.115775 -0.025429
0.319378 0.115775 -0.025429
0.372467 0.115775 -0.025429
0.431182 0.115775 -0.025429
0.496263 0.115775 -0.025429
0.568524 0.115775 -0.025429
0.648861 0.115775 -0.025429
0.738265 0.115775 -0.025429
0.837836 0.115775 -0.025429
0.948798 0.115775 -0.025429
1.072510 0.115775 -0.025429
1.210488 0.115775 -0.025429
1.364419 0.115775 -0.025429
1.536187 0.115775 -0.025429
1.727890 0.115775 -0.025429
1.941870 0.115775 -0.025429
2.180743 0.115775 -0.025429
2.447423 0.115775 -0.025429
2.745169 0.115775 -0.025429
3.077616 0.115775 -0.025429
3.448821 0.115775 -0.025429
-0.025429 0.150270 -0.025429
-0.018840 0.150270 -0.025429
-0.010420 0.150270 -0.025429
0.000343 0.150270 -0.025429
0.014098 0.150270 -0.025429
0.031679 0.150270 -0.025429
0.054149 0.150270 -0.025429
0.083106 0.150270 -0.025429
0.115775 0.150270 -0.025429
0.150270 0.150270 -0.025429
0.187274 0.150270 -0.025429
0.227399 0.150270 -0.025429
0.271233 0.150270 -0.025429
0.319378 0.150270 -0.025429
0.372467 0.150270 -0.025429
0.431182 0.150270 -0.025429
0.496263 0.150270 -0.025429
0.568524 0.150270 -0.025429
0.648861 0.150270 -0.025429
0.738265 0.150270 -0.025429
0.837836 0.150270 -0.025429
0.948798 0.150270 -0.025429
1.072510 0.150270 -0.025429
1.210488 0.150270 -0.025429
1.364419 0.150270 -0.025429
1.536187 0.150270 -0.025429
1.727890 0.150270 -0.025429
1.941870 0.150270 -0.025429
2.180743 0.150270 -0.025429
2.447423 0.150270 -0.025429
2.745169 0.150270 -0.025429
3.077616 0.150270 -0.025429
3.448821 0.150270 -0.025429
-0.025429 0.187274 -0.025429
-0.018840 0.187274 -0.025429
-0.010420 0.187274 -0.025429
0.000343 0.187274 -0.025429
0.014098 0.187274 -0.025429
0.031679 0.187274 -0.025429
0.054149 0.187274 -0.025429
0.083106 0.187274 -0.025429
0.115775 0.187274 -0.025429
0.150270 0.187274 -0.025429
0.187274 0.187274 -0.025429
0.227399 0.187274 -0.025429
0.271233 0.187274 -0.025429
0.319378 0.187274 -0.025429
0.372467 0.187274 -0.025429
0.431182 0.187274 -0.025429
0.496263 0.187274 -0.025429
0.568524 0.187274 -0.025429
0.648861 0.187274 -0.025429
0.738265 0.187274 -0.025429
0.837836 0.187274 -0.025429
0.948798 0.187274 -0.025429
1.072510 0.187274 -0.025429
1.210488 0.187274 -0.025429
1.364419 0.187274 -0.025429
1.536187 0.187274 -0.025429
1.727890 0.187274 -0.025429
1.941870 0.187274 -0.025429
2.180743 0.187274 -0.025429
2.447423 0.187274 -0.025429
2.745169 0.187274 -0.025429
3.077616 0.187274 -0.025429
3.448821 0.187274 -0.025429
-0.025429 0.227399 -0.025429
-0.018840 0.227399 -0.025429
-0.010420 0.227399 -0.025429
0.000343 0.227399 -0.025429
0.014098 0.227399 -0.025429
0.031679 0.227399 -0.025429
0.054149 0.227399 -0.025429
0.083106 0.227399 -0.025429
0.115775 0.227399 -0.025429
0.150270 0.227399 -0.025429
0.187274 0.227399 -0.025429
0.227399 0.227399 -0.025429
0.271233 0.227399 -0.025429
0.319378 0.227399 -0.025429
0.372467 0.227399 -0.025429
0.431182 0.227399 -0.025429
0.496263 0.227399 -0.025429
0.568524 0.227399 -0.025429
0.648861 0.227399 -0.025429
0.738265 0.227399 -0.025429
0.837836 0.227399 -0.025429
0.948798 0.227399 -0.025429
1.072510 0.227399 -0.025429
1.210488 0.227399 -0.025429
1.364419 0.227399 -0.025429
1.536187 0.227399 -0.025429
1.727890 0.227399 -0.025429
1.941870 0.227399 -0.025429
2.180743 0.227399 -0.025429
2.447423 0.227399 -0.025429
2.745169 0.227399 -0.025429
3.077616 0.227399 -0.025429
3.448821 0.227399 -0.025429
-0.025429 0.271233 -0.025429
-0.018840 0.271233 -0.025429
-0.010420 0.271233 -0.025429
0.000343 0.271233 -0.025429
0.014098 0.271233 -0.025429
0.031679 0.271233 -0.025429
0.054149 0.271233 -0.025429
0.083106 0.271233 -0.025429
0.115775 0.271233 -0.025429
0.150270 0.271233 -0.025429
0.187274 0.271233 -0.025429
0.227399 0.271233 -0.025429
0.271233 0.271233 -0.025429
0.319378 0.271233 -0.025429
0.372467 0.271233 -0.025429
0.431182 0.271233 -0.025429
0.496263 0.271233 -0.025429
0.568524 0.271233 -0.025429
0.648861 0.271233 -0.025429
0.738265 0.271233 -0.025429
0.837836 0.271233 -0.025429
0.948798 0.271233 -0.025429
1.072510 0.271233 -0.025429
1.210488 0.271233 -0.025429
1.364419 0.271233 -0.025429
1.536187 0.271233 -0.025429
1.727890 0.271233 -0.025429
1.941870 0.271233 -0.025429
2.180743 0.271233 -0.025429
2.447423 0.271233 -0.025429
2.745169 0.271233 -0.025429
3.077616 0.271233 -0.025429
3.448821 0.271233 -0.025429
-0.025429 0.319378 -0.025429
-0.018840 0.319378 -0.025429
-0.010420 0.319378 -0.025429
0.000343 0.319378 -0.025429
0.014098 0.319378 -0.025429
0.031679 0.319378 -0.025429
0.054149 0.319378 -0.025429
0.083106 0.319378 -0.025429
0.115775 0.319378 -0.025429
0.150270 0.319378 -0.025429
0.187274 0.319378 -0.025429
0.227399 0.319378 -0.025429
0.271233 0.319378 -0.025429
0.319378 0.319378 -0.025429
0.372467 0.319378 -0.025429
0.431182 0.319378 -0.025429
0.496263 0.319378 -0.025429
0.568524 0.319378 -0.025429
0.648861 0.319378 -0.025429
0.738265 0.319378 -0.025429
0.837836 0.319378 -0.025429
0.948798 0.319378 -0.025429
1.072510 0.319378 -0.025429
1.210488 0.319378 -0.025429
1.364419 0.319378 -0.025429
1.536187 0.319378 -0.025429
1.727890 0.319378 -0.025429
1.941870 0.319378 -0.025429
2.180743 0.319378 -0.025429
2.447423 0.319378 -0.025429
2.745169 0.319378 -0.025429
3.077616 0.319378 -0.025429
3.448821 0.319378 -0.025429
-0.025429 0.372467 -0.025429
-0.018840 0.372467 -0.025429
-0.010420 0.372467 -0.025429
0.000343 0.372467 -0.025429
0.014098 0.372467 -0.025429
0.031679 0.372467 -0.025429
0.054149 0.372467 -0.025429
0.083106 0.372467 -0.025429
0.115775 0.372467 -0.025429
0.150270 0.372467 -0.025429
0.187274 0.372467 -0.025429
0.227399 0.372467 -0.025429
0.271233 0.372467 -0.025429
0.319378 0.372467 -0.025429
0.372467 0.372467 -0.025429
0.431182 0.372467 -0.025429
0.496263 0.372467 -0.025429
0.568524 0.372467 -0.025429
0.648861 0.372467 -0.025429
0.738265 0.372467 -0.025429
0.837836 0.372467 -0.025429
0.948798 0.372467 -0.025429
1.072510 0.372467 -0.025429
1.210488 0.372467 -0.025429
1.364419 0.372467 -0.025429
1.536187 0.372467 -0.025429
1.727890 0.372467 -0.025429
1.941870 0.372467 -0.025429
2.180743 0.372467 -0.025429
2.447423 0.372467 -0.025429
2.745169 0.372467 -0.025429
3.077616 0.372467 -0.025429
3.448821 0.372467 -0.025429
-0.025429 0.431182 -0.025429
-0.018840 0.431182 -0.025429
-0.010420 0.431182 -0.025429
0.000343 0.431182 -0.025429
0.014098 0.431182 -0.025429
0.031679 0.431182 -0.025429
0.054149 0.431182 -0.025429
0.083106 0.431182 -0.025429
0.115775 0.431182 -0.025429
0.150270 0.431182 -0.025429
0.187274 0.431182 -0.025429
0.227399 0.431182 -0.025429
0.271233 0.431182 -0.025429
0.319378 0.431182 -0.025429
0.372467 0.431182 -0.025429
0.431182 0.431182 -0.025429
0.496263 0.431182 -0.025429
0.568524 0.431182 -0.025429
0.648861 0.431182 -0.025429
0.738265 0.431182 -0.025429
0.837836 0.431182 -0.025429
0.948798 0.431182 -0.025429
1.072510 0.431182 -0.025429
1.210488 0.431182 -0.025429
1.364419 0.431182 -0.025429
1.536187 0.431182 -0.025429
1.727890 0.431182 -0.025429
1.941870 0.431182 -0.025429
2.180743 0.431182 -0.025429
2.447423 0.431182 -0.025429
2.745169 0.431182 -0.025429
3.077616 0.431182 -0.025429
3.448821 0.431182 -0.025429
-0.025429 0.496263 -0.025429
-0.018840 0.496263 -0.025429
-0.010420 0.496263 -0.025429
0.000343 0.496263 -0.025429
0.014098 0.496263 -0.025429
0.031679 0.496263 -0.025429
0.054149 0.496263 -0.025429
0.083106 0.496263 -0.025429
0.115775 0.496263 -0.025429
0.150270 0.496263 -0.025429
0.187274 0.496263 -0.025429
0.227399 0.496263 -0.025429
0.271233 0.496263 -0.025429
0.319378 0.496263 -0.025429
0.372467 0.496263 -0.025429
0.431182 0.496263 -0.025429
0.496263 0.496263 -0.025429
0.568524 0.496263 -0.025429
0.648861 0.496263 -0.025429
0.738265 0.496263 -0.025429
0.837836 0.496263 -0.025429
0.948798 0.496263 -0.025429
1.072510 0.496263 -0.025429
1.210488 0.496263 -0.025429
1.364419 0.496263 -0.025429
1.536187 0.496263 -0.025429
1.727890 0.496263 -0.025429
1.941870 0.496263 -0.025429
2.180743 0.496263 -0.025429
2.447423 0.496263 -0.025429
2.745169 0.496263 -0.025429
3.077616 0.496263 -0.025429
3.448821 0.496263 -0.025429
-0.025429 0.568524 -0.025429
-0.018840 0.568524 -0.025429
-0.010420 0.568524 -0.025429
0.000343 0.568524 -0.025429
0.014098 0.568524 -0.025429
0.031679 0.568524 -0.025429
0.054149 0.568524 -0.025429
0.083106 0.568524 -0.025429
0.115775 0.568524 -0.025429
0.150270 0.568524 -0.025429
0.187274 0.568524 -0.025429
0.227399 0.568524 -0.025429
0.271233 0.568524 -0.025429
0.319378 0.568524 -0.025429
0.372467 0.568524 -0.025429
0.431182 0.568524 -0.025429
0.496263 0.568524 -0.025429
0.568524 0.568524 -0.025429
0.648861 0.568524 -0.025429
0.738265 0.568524 -0.025429
0.837836 0.568524 -0.025429
0.948798 0.568524 -0.025429
1.072510 0.568524 -0.025429
1.210488 0.568524 -0.025429
1.364419 0.568524 -0.025429
1.536187 0.568524 -0.025429
1.727890 0.568524 -0.025429
1.941870 0.568524 -0.025429
2.180743 0.568524 -0.025429
2.447423 0.568524 -0.025429
2.745169 0.568524 -0.025429
3.077616 0.568524 -0.025429
3.448821 0.568524 -0.025429
-0.025429 0.648861 -0.025429
-0.018840 0.648861 -0.025429
-0.010420 0.648861 -0.025429
0.000343 0.648861 -0.025429
0.014098 0.648861 -0.025429
0.031679 0.648861 -0.025429
0.054149 0.648861 -0.025429
0.083106 0.648861 -0.025429
0.115775 0.648861 -0.025429
0.150270 0.648861 -0.025429
0.187274 0.648861 -0.025429
0.227399 0.648861 -0.025429
0.271233 0.648861 -0.025429
0.319378 0.648861 -0.025429
0.372467 0.648861 -0.025429
0.431182 0.648861 -0.025429
0.496263 0.648861 -0.025429
0.568524 0.648861 -0.025429
0.648861 0.648861 -0.025429
0.738265 0.648861 -0.025429
0.837836 0.648861 -0.025429
0.948798 0.648861 -0.025429
1.072510 0.648861 -0.025429
1.210488 0.648861 -0.025429
1.364419 0.648861 -0.025429
1.536187 0.648861 -0.025429
1.727890 0.648861 -0.025429
1.941870 0.648861 -0.025429
2.180743 0.648861 -0.025429
2.447423 0.648861 -0.025429
2.745169 0.648861 -0.025429
3.077616 0.648861 -0.025429
3.448821 0.648861 -0.025429
-0.025429 0.738265 -0.025429
-0.018840 0.738265 -0.025429
-0.010420 0.738265 -0.025429
0.000343 0.738265 -0.025429
0.014098 0.738265 -0.025429
0.031679 0.738265 -0.025429
0.054149 0.738265 -0.025429
0.083106 0.738265 -0.025429
0.115775 0.738265 -0.025429
0.150270 0.738265 -0.025429
0.187274 0.738265 -0.025429
0.227399 0.738265 -0.025429
0.271233 0.738265 -0.025429
0.319378 0.738265 -0.025429
0.372467 0.738265 -0.025429
0.431182 0.738265 -0.025429
0.496263 0.738265 -0.025429
0.568524 0.738265 -0.025429
0.648861 0.738265 -0.025429
0.738265 0.738265 -0.025429
0.837836 0.738265 -0.025429
0.948798 0.738265 -0.025429
1.072510 0.738265 -0.025429
1.210488 0.738265 -0.025429
1.364419 0.738265 -0.025429
1.536187 0.738265 -0.025429
1.727890 0.738265 -0.025429
1.941870 0.738265 -0.025429
2.180743 0.738265 -0.025429
2.447423 0.738265 -0.025429
2.745169 0.738265 -0.025429
3.077616 0.738265 -0.025429
3.448821 0.738265 -0.025429
-0.025429 0.837836 -0.025429
-0.018840 0.837836 -0.025429
-0.010420 0.837836 -0.025429
0.000343 0.837836 -0.025429
0.014098 0.837836 -0.025429
0.031679 0.837836 -0.025429
0.054149 0.837836 -0.025429
0.083106 0.837836 -0.025429
0.115775 0.837836 -0.025429
0.150270 0.837836 -0.025429
0.187274 0.837836 -0.025429
0.227399 0.837836 -0.025429
0.271233 0.837836 -0.025429
0.319378 0.837836 -0.025429
0.372467 0.837836 -0.025429
0.431182 0.837836 -0.025429
0.496263 0.837836 -0.025429
0.568524 0.837836 -0.025429
0.648861 0.837836 -0.025429
0.738265 0.837836 -0.025429
0.837836 0.837836 -0.025429
0.948798 0.837836 -0.025429
1.072510 0.837836 -0.025429
1.210488 0.837836 -0.025429
1.364419 0.837836 -0.025429
1.536187 0.837836 -0.025429
1.727890 0.837836 -0.025429
1.941870 0.837836 -0.025429
2.180743 0.837836 -0.025429
2.447423 0.837836 -0.025429
2.745169 0.837836 -0.025429
3.077616 0.837836 -0.025429
3.448821 0.837836 -0.025429
-0.025429 0.948798 -0.025429
-0.018840 0.948798 -0.025429
-0.010420 0.948798 -0.025429
0.000343 0.948798 -0.025429
0.014098 0.948798 -0.025429
0.031679 0.948798 -0.025429
0.054149 0.948798 -0.025429
0.083106 0.948798 -0.025429
0.115775 0.948798 -0.025429
0.150270 0.948798 -0.025429
0.187274 0.948798 -0.025429
0.227399 0.948798 -0.025429
0.271233 0.948798 -0.025429
0.319378 0.948798 -0.025429
0.372467 0.948798 -0.025429
0.431182 0.948798 -0.025429
0.496263 0.948798 -0.025429
0.568524 0.948798 -0.025429
0.648861 0.948798 -0.025429
0.738265 0.948798 -0.025429
0.837836 0.948798 -0.025429
0.948798 0.948798 -0.025429
1.072510 0.948798 -0.025429
1.210488 0.948798 -0.025429
1.364419 0.948798 -0.025429
1.536187 0.948798 -0.025429
1.727890 0.948798 -0.025429
1.941870 0.948798 -0.025429
2.180743 0.948798 -0.025429
2.447423 0.948798 -0.025429
2.745169 0.948798 -0.025429
3.077616 0.948798 -0.025429
3.448821 0.948798 -0.025429
-0.025429 1.072510 -0.025429
-0.018840 1.072510 -0.025429
-0.010420 1.072510 -0.025429
0.000343 1.072510 -0.025429
0.014098 1.072510 -0.025429
0.031679 1.072510 -0.025429
0.054149 1.072510 -0.025429
0.083106 1.072510 -0.025429
0.115775 1.072510 -0.025429
0.150270 1.072510 -0.025429
0.187274 1.072510 -0.025429
0.227399 1.072510 -0.025429
0.271233 1.072510 -0.025429
0.319378 1.072510 -0.025429
0.372467 1.072510 -0.025429
0.431182 1.072510 -0.025429
0.496263 1.072510 -0.025429
0.568524 1.072510 -0.025429
0.648861 1.072510 -0.025429
0.738265 1.072510 -0.025429
0.837836 1.072510 -0.025429
0.948798 1.072510 -0.025429
1.072510 1.072510 -0.025429
1.210488 1.072510 -0.025429
1.364419 1.072510 -0.025429
1.536187 1.072510 -0.025429
1.727890 1.072510 -0.025429
1.941870 1.072510 -0.025429
2.180743 1.072510 -0.025429
2.447423 1.072510 -0.025429
2.745169 1.072510 -0.025429
3.077616 1.072510 -0.025429
3.448821 1.072510 -0.025429
-0.025429 1.210488 -0.025429
-0.018840 1.210488 -0.025429
-0.010420 1.210488 -0.025429
0.000343 1.210488 -0.025429
0.014098 1.210488 -0.025429
0.031679 1.210488 -0.025429
0.054149 1.210488 -0.025429
0.083106 1.210488 -0.025429
0.115775 1.210488 -0.025429
0.150270 1.210488 -0.025429
0.187274 1.210488 -0.025429
0.227399 1.210488 -0.025429
0.271233 1.210488 -0.025429
0.319378 1.210488 -0.025429
0.372467 1.210488 -0.025429
0.431182 1.210488 -0.025429
0.496263 1.210488 -0.025429
0.568524 1.210488 -0.025429
0.648861 1.210488 -0.025429
0.738265 1.210488 -0.025429
0.837836 1.210488 -0.025429
0.948798 1.210488 -0.025429
1.072510 1.210488 -0.025429
1.210488 1.210488 -0.025429
1.364419 1.210488 -0.025429
1.536187 1.210488 -0.025429
1.727890 1.210488 -0.025429
1.941870 1.210488 -0.025429
2.180743 1.210488 -0.025429
2.447423 1.210488 -0.025429
2.745169 1.210488 -0.025429
3.077616 1.210488 -0.025429
3.448821 1.210488 -0.025429
-0.025429 1.364419 -0.025429
-0.018840 1.364419 -0.025429
-0.010420 1.364419 -0.025429
0.000343 1.364419 -0.025429
0.014098 1.364419 -0.025429
0.031679 1.364419 -0.025429
0.054149 1.364419 -0.025429
0.083106 1.364419 -0.025429
0.115775 1.364419 -0.025429
0.150270 1.364419 -0.025429
0.187274 1.364419 -0.025429
0.227399 1.364419 -0.025429
0.271233 1.364419 -0.025429
0.319378 1.364419 -0.025429
0.372467 1.364419 -0.025429
0.431182 1.364419 -0.025429
0.496263 1.364419 -0.025429
0.568524 1.364419 -0.025429
0.648861 1.364419 -0.025429
0.738265 1.364419 -0.025429
0.837836 1.364419 -0.025429
0.948798 1.364419 -0.025429
1.072510 1.364419 -0.025429
1.210488 1.364419 -0.025429
1.364419 1.364419 -0.025429
1.536187 1.364419 -0.025429
1.727890 1.364419 -0.025429
1.941870 1.364419 -0.025429
2.180743 1.364419 -0.025429
2.447423 1.364419 -0.025429
2.745169 1.364419 -0.025429
3.077616 1.364419 -0.025429
3.448821 1.364419 -0.025429
-0.025429 1.536187 -0.025429
-0.018840 1.536187 -0.025429
-0.010420 1.536187 -0.025429
