HollywoodCinema_Ultimate_v6.7B_1.5IRE_Instagram8bit_NeutralShadows.cube
TITLE "Hollywood Cinema Ultimate v6.7C 1.5IRE_Instagram8bit_TVRange - Neutral Shadows"
LUT_3D_SIZE 9
0.031373 0.031373 0.031373
0.089033 0.052779 0.052804
0.173972 0.068187 0.068313
0.292658 0.077099 0.076817
0.437289 0.073271 0.073171
0.556960 0.062219 0.062237
0.595375 0.066419 0.066362
0.622955 0.086773 0.086557
0.638644 0.100937 0.101338
0.059750 0.106877 0.059549
0.115122 0.115420 0.057682
0.211140 0.124957 0.061965
0.328207 0.123055 0.052886
0.458049 0.124349 0.048978
0.583748 0.127457 0.050495
0.641528 0.143721 0.072345
0.677163 0.168199 0.101515
0.694976 0.181467 0.121441
0.050749 0.227678 0.051027
0.122532 0.232249 0.044303
0.232559 0.233674 0.037717
0.352655 0.235224 0.046124
0.481427 0.236414 0.047576
0.597640 0.240304 0.054118
0.662353 0.255009 0.087401
0.703745 0.276037 0.132104
0.724181 0.287897 0.156699
0.048566 0.354643 0.048728
0.119349 0.359296 0.037607
0.231235 0.361205 0.031611
0.361735 0.361015 0.031611
0.486024 0.360440 0.052521
0.603458 0.362728 0.063387
0.687591 0.372865 0.102394
0.743768 0.387604 0.154223
0.770528 0.396766 0.182486
0.067159 0.474078 0.066627
0.134418 0.482152 0.056015
0.239030 0.488864 0.046788
0.362182 0.490893 0.042689
0.489908 0.490176 0.048995
0.608057 0.493561 0.090859
0.701293 0.498103 0.138191
0.770010 0.507761 0.189011
0.806416 0.517648 0.219976
0.145553 0.576185 0.145704
0.202875 0.588222 0.130161
0.284791 0.601337 0.113865
0.388701 0.610352 0.105612
0.504726 0.616007 0.113307
0.619092 0.619169 0.135591
0.713528 0.622808 0.203613
0.792911 0.632242 0.246660
0.834495 0.637259 0.273030
0.240298 0.671307 0.240002
0.291793 0.686284 0.231226
0.360990 0.700853 0.220412
0.445344 0.714067 0.213849
0.542332 0.725535 0.216472
0.643814 0.733436 0.229806
0.736890 0.737602 0.294190
0.812448 0.747021 0.353948
0.853670 0.753520 0.377880
0.329556 0.760572 0.329230
0.378525 0.778523 0.326575
0.440011 0.795308 0.320871
0.529006 0.801295 0.350440
0.610053 0.818307 0.355854
0.693386 0.831097 0.366273
0.775933 0.842145 0.384460
0.852282 0.853639 0.410051
0.896058 0.859771 0.434675
0.385600 0.816980 0.385931
0.456002 0.823566 0.412289
0.512317 0.842696 0.412116
0.576823 0.860801 0.413194
0.649545 0.877642 0.417724
0.726206 0.892697 0.427620
0.806952 0.905686 0.445064
0.880449 0.909918 0.467038
0.910237 0.910567 0.482276
0.049047 0.049230 0.079840
0.088253 0.054156 0.088498
0.175819 0.068535 0.114195
0.288933 0.075584 0.135025
0.436863 0.070256 0.143687
0.567900 0.055436 0.130734
0.612051 0.064878 0.132607
0.639489 0.086023 0.149330
0.654404 0.100509 0.160071
0.060076 0.110482 0.110030
0.117647 0.117647 0.117647
0.214301 0.126248 0.126445
0.345683 0.119886 0.119726
0.477180 0.120577 0.120374
0.608414 0.120796 0.121525
0.671976 0.138730 0.138899
0.702247 0.164806 0.165182
0.716953 0.179454 0.179359
0.049695 0.227419 0.124329
0.120545 0.233972 0.120525
0.234942 0.235185 0.115096
0.357366 0.236045 0.121848
0.487033 0.236617 0.121923
0.615651 0.237548 0.123301
0.702598 0.247524 0.144804
0.752502 0.266737 0.178977
0.773547 0.278382 0.197664
0.046035 0.353627 0.124372
0.113583 0.358464 0.114803
0.228812 0.362253 0.104411
0.360215 0.360380 0.097405
0.489118 0.359049 0.117461
0.619907 0.362583 0.127341
0.720162 0.367614 0.151774
0.777666 0.382798 0.196921
0.803243 0.393066 0.224750
0.056725 0.484344 0.137452
0.122678 0.487860 0.122002
0.232640 0.492654 0.115122
0.357214 0.492672 0.107508
0.492816 0.493133 0.105797
0.625414 0.491266 0.120775
0.730779 0.496205 0.163847
0.804347 0.507223 0.219675
0.839795 0.515465 0.250434
0.120001 0.588148 0.193997
0.177723 0.604162 0.177273
0.257334 0.617638 0.150424
0.372077 0.623896 0.142263
0.497314 0.624337 0.140584
0.626031 0.626408 0.155735
0.731855 0.626806 0.219121
0.816180 0.631225 0.260861
0.861424 0.638476 0.291441
0.220171 0.684427 0.281574
0.268880 0.700082 0.269326
0.336880 0.715031 0.252161
0.425745 0.729392 0.238856
0.528441 0.737148 0.231346
0.640236 0.743010 0.239486
0.745225 0.744578 0.301541
0.825302 0.750831 0.363915
0.871219 0.757565 0.388285
0.312599 0.772390 0.365085
0.358453 0.789250 0.357764
0.419526 0.807407 0.348653
0.513634 0.815387 0.373482
0.596008 0.829359 0.370278
0.685034 0.841121 0.375966
0.775299 0.850960 0.391816
0.858062 0.859465 0.415865
0.905337 0.866487 0.444349
0.370719 0.828343 0.419020
0.441540 0.835046 0.441187
0.495379 0.854018 0.437547
0.561656 0.873007 0.434552
0.636657 0.889841 0.434475
0.720220 0.903976 0.440267
0.803906 0.909408 0.453605
0.880675 0.910589 0.472865
0.910666 0.910949 0.488218
0.063564 0.063440 0.141921
0.104630 0.067017 0.157576
0.178101 0.068945 0.178169
0.298743 0.073227 0.214728
0.437204 0.065914 0.233286
0.568553 0.049189 0.227831
0.618975 0.065395 0.223662
0.649452 0.086820 0.228807
0.665223 0.101715 0.232831
0.068872 0.123962 0.195220
0.125457 0.125216 0.210415
0.221991 0.122467 0.222353
0.344762 0.119895 0.229970
0.475800 0.121538 0.233121
0.609037 0.120261 0.233191
0.688322 0.135871 0.238131
0.719744 0.161562 0.247503
0.735408 0.177921 0.256717
0.051124 0.229555 0.229420
0.119844 0.233544 0.234164
0.235294 0.235294 0.235294
0.367998 0.233072 0.232689
0.496292 0.231693 0.232057
0.640575 0.229027 0.230411
0.747792 0.236713 0.236397
0.792656 0.258411 0.258030
0.809226 0.272327 0.272323
0.044824 0.355909 0.235233
0.111041 0.361340 0.232177
0.225753 0.363228 0.225721
0.359763 0.360533 0.219282
0.494016 0.358677 0.229151
0.625520 0.361764 0.235872
0.744590 0.363254 0.243618
0.822852 0.375408 0.267233
0.851836 0.383021 0.284204
0.052648 0.486186 0.243007
0.119613 0.490965 0.235479
0.227564 0.493524 0.226402
0.352446 0.493617 0.219293
0.492853 0.493155 0.216801
0.638254 0.492750 0.210093
0.756304 0.495135 0.241375
0.843461 0.502103 0.274264
0.881162 0.510011 0.301268
0.093562 0.600407 0.272250
0.143964 0.618796 0.252649
0.221146 0.630150 0.221968
0.360338 0.629384 0.233993
0.490996 0.627961 0.226795
0.629509 0.630854 0.228099
0.751386 0.629317 0.264262
0.849612 0.631066 0.294938
0.898439 0.636835 0.323783
0.194536 0.697417 0.340532
0.238239 0.713927 0.325218
0.303877 0.730139 0.302812
0.394797 0.745007 0.283788
0.506151 0.751643 0.267880
0.632049 0.754672 0.267068
0.753228 0.753720 0.310905
0.846994 0.757639 0.377256
0.895229 0.758567 0.400969
0.293164 0.787094 0.417191
0.332620 0.802172 0.404517
0.391461 0.822666 0.391828
0.486352 0.829412 0.404773
0.572854 0.843861 0.392679
0.672931 0.857134 0.392757
0.774332 0.863734 0.402752
0.867953 0.868970 0.425477
0.909981 0.872814 0.456273
0.383566 0.829804 0.486103
0.422557 0.848117 0.481747
0.475241 0.868887 0.475143
0.539270 0.888330 0.466739
0.617206 0.904433 0.458936
0.706003 0.909876 0.457590
0.794584 0.910689 0.463709
0.880892 0.911147 0.480168
0.911051 0.911553 0.495152
0.080707 0.080565 0.237943
0.129048 0.080139 0.253921
0.207113 0.077707 0.282535
0.307910 0.069817 0.308498
0.442153 0.060763 0.334729
0.557117 0.052028 0.331736
0.611599 0.069257 0.318185
0.648669 0.091082 0.313440
0.667237 0.106386 0.312569
0.074548 0.132279 0.284817
0.131462 0.131686 0.306726
0.224223 0.123525 0.331560
0.343116 0.122640 0.343473
0.475178 0.122917 0.352186
0.607367 0.122638 0.355796
0.689357 0.138740 0.348911
0.726829 0.164144 0.343979
0.743244 0.179320 0.343676
0.052977 0.230410 0.340250
0.123591 0.234301 0.352522
0.235550 0.235185 0.362861
0.365136 0.232680 0.364469
0.504709 0.230241 0.365000
0.639055 0.229574 0.361415
0.756750 0.236262 0.362041
0.809350 0.254202 0.362399
0.828628 0.269635 0.367301
0.045385 0.357696 0.356768
0.110592 0.361978 0.361337
0.225497 0.363949 0.363226
0.360784 0.360784 0.360784
0.503749 0.354471 0.355149
0.644946 0.356554 0.356023
0.770114 0.357457 0.356653
0.872318 0.363849 0.364089
0.903634 0.373247 0.373013
0.052725 0.486909 0.362891
0.117214 0.490194 0.359287
0.223333 0.494734 0.356682
0.350745 0.495211 0.349314
0.493624 0.494406 0.342088
0.642600 0.490458 0.340822
0.756458 0.494398 0.363746
0.866199 0.496690 0.371331
0.906263 0.500144 0.381888
0.079521 0.607760 0.373838
0.115145 0.628384 0.360030
0.218601 0.633125 0.351785
0.354314 0.630358 0.353049
0.487109 0.629451 0.346263
0.628791 0.628877 0.344891
0.754786 0.626532 0.366784
0.872917 0.630947 0.378762
0.909972 0.625345 0.387621
0.170940 0.708719 0.419054
0.209692 0.727495 0.406664
0.273171 0.745184 0.386965
0.369097 0.756496 0.370437
0.493863 0.760169 0.361199
0.627332 0.760279 0.357263
0.758134 0.758198 0.355336
0.870191 0.757697 0.396489
0.910246 0.755562 0.421011
0.270472 0.796983 0.478509
0.306644 0.816248 0.468997
0.390192 0.828161 0.474824
0.454532 0.848482 0.455081
0.539198 0.862856 0.430061
0.647114 0.872770 0.414064
0.764965 0.876767 0.415008
0.878422 0.879649 0.436712
0.910943 0.873008 0.467510
0.367271 0.841900 0.539500
0.402662 0.862072 0.535646
0.450535 0.884009 0.525774
0.511096 0.904037 0.510960
0.587935 0.910284 0.494156
0.677211 0.911030 0.478867
0.776802 0.911569 0.474845
0.876056 0.912206 0.487131
0.911621 0.912593 0.501841
0.102309 0.102384 0.360015
0.154387 0.094867 0.375273
0.229639 0.084819 0.399106
0.326775 0.071895 0.425666
0.441162 0.057016 0.440514
0.530759 0.060142 0.424937
0.591098 0.076928 0.405578
0.635998 0.099073 0.395035
0.658769 0.114294 0.390633
0.075964 0.140895 0.399302
0.133523 0.133899 0.422779
0.225668 0.123596 0.448325
0.343613 0.123242 0.461476
0.473325 0.124067 0.472456
0.594415 0.127149 0.471969
0.670196 0.144621 0.452758
0.717598 0.171036 0.439494
0.738948 0.185963 0.433212
0.054466 0.232201 0.455228
0.125644 0.233324 0.467110
0.233623 0.234762 0.482954
0.361408 0.233164 0.494914
0.497964 0.231457 0.498664
0.632469 0.231292 0.495054
0.746770 0.236012 0.487359
0.808151 0.256566 0.476547
0.831828 0.272096 0.473169
0.048614 0.356909 0.480442
0.117392 0.360037 0.492057
0.227409 0.360667 0.499845
0.358593 0.359954 0.504687
0.499844 0.354220 0.500344
0.640897 0.353750 0.496861
0.771535 0.356672 0.494859
0.886349 0.360362 0.494041
0.910400 0.369555 0.493414
0.055864 0.485394 0.485631
0.118988 0.489377 0.489318
0.224989 0.493433 0.494586
0.349068 0.494381 0.495594
0.498039 0.498039 0.498039
0.649037 0.487584 0.487536
0.775206 0.487951 0.487942
0.894073 0.490250 0.490589
0.912608 0.489826 0.489178
0.073705 0.612138 0.490944
0.103017 0.631596 0.491556
0.226959 0.629444 0.492716
0.348751 0.630208 0.488615
0.482657 0.630464 0.483701
0.628994 0.628761 0.480052
0.760879 0.628206 0.492621
0.877570 0.628905 0.498661
0.910617 0.622544 0.498536
0.157864 0.716386 0.514855
0.190811 0.734338 0.509546
0.255763 0.752017 0.500074
0.362327 0.759502 0.493901
0.488592 0.762124 0.487269
0.622502 0.761160 0.480503
0.758810 0.759238 0.477819
0.878595 0.758144 0.500507
0.911194 0.748043 0.501241
0.255335 0.807555 0.557690
0.285640 0.828795 0.551854
0.360375 0.841633 0.551897
0.416088 0.865473 0.528846
0.501453 0.880906 0.501666
0.626102 0.885780 0.492656
0.756742 0.885787 0.486914
0.881629 0.883312 0.485248
0.912363 0.870499 0.504191
0.353751 0.852200 0.603637
0.384191 0.873876 0.602167
0.424955 0.898073 0.593132
0.477864 0.910156 0.574569
0.545122 0.911443 0.545574
0.637035 0.913080 0.517669
0.751881 0.914259 0.503819
0.868550 0.914578 0.505093
0.912320 0.914475 0.514635
0.120023 0.119949 0.467484
0.171426 0.107664 0.489322
0.241730 0.090584 0.509781
0.325151 0.074271 0.520648
0.413451 0.061663 0.514536
0.497195 0.072375 0.497039
0.563275 0.088714 0.479075
0.615156 0.110622 0.466075
0.642994 0.125699 0.461199
0.075301 0.144683 0.521018
0.131183 0.130935 0.543746
0.225793 0.122968 0.562132
0.342469 0.125804 0.577457
0.460605 0.127835 0.578092
0.563136 0.138768 0.563193
0.639618 0.158422 0.541258
0.695131 0.182014 0.524034
0.722122 0.196379 0.516435
0.056255 0.231683 0.567663
0.130506 0.235453 0.587486
0.235056 0.234708 0.602378
0.359164 0.236030 0.618597
0.493041 0.234717 0.626992
0.622145 0.235540 0.622488
0.723585 0.245706 0.604525
0.788280 0.264979 0.581630
0.816891 0.279916 0.573138
0.055142 0.354266 0.596660
0.124238 0.358034 0.612975
0.234333 0.360008 0.627244
0.359954 0.360402 0.635978
0.498177 0.358285 0.639163
0.634052 0.356012 0.633643
0.762744 0.356058 0.628950
0.881167 0.359362 0.626243
0.909925 0.371654 0.617927
0.063726 0.483270 0.604518
0.129065 0.490938 0.619310
0.231198 0.493244 0.628465
0.351288 0.492947 0.636138
0.489555 0.489641 0.652475
0.640176 0.485431 0.640636
0.775229 0.488391 0.632678
0.893689 0.491130 0.629918
0.912764 0.486837 0.618781
0.083410 0.611554 0.612167
0.122015 0.626623 0.627223
0.236085 0.626330 0.627279
0.351745 0.631147 0.631565
0.482012 0.630825 0.630212
0.635294 0.635294 0.635294
0.771910 0.624678 0.625119
0.897702 0.624932 0.624874
0.915000 0.614676 0.615142
0.159657 0.717279 0.618841
0.190227 0.736965 0.625336
0.252918 0.753067 0.627535
0.360833 0.759387 0.627302
0.483034 0.761711 0.623704
0.619131 0.763111 0.619417
0.758733 0.758278 0.611841
0.884158 0.758212 0.625841
0.911647 0.746795 0.620782
0.249590 0.813265 0.646226
0.275572 0.836639 0.648442
0.342623 0.852222 0.650228
0.386908 0.875805 0.635673
0.492959 0.884232 0.627335
0.621283 0.887295 0.620325
0.754055 0.888348 0.614322
0.881483 0.883848 0.609506
0.913070 0.869194 0.614583
0.347806 0.860595 0.677804
0.373413 0.883216 0.680077
0.405740 0.906516 0.675657
0.445292 0.910988 0.658321
0.508269 0.913395 0.631733
0.620920 0.914730 0.619743
0.742115 0.915344 0.612368
0.865050 0.915444 0.609635
0.912554 0.915403 0.609928
0.125654 0.125676 0.513995
0.170597 0.113030 0.534966
0.231271 0.095687 0.551883
0.301981 0.079860 0.559351
0.381908 0.073064 0.556413
0.464667 0.085393 0.546136
0.535707 0.104180 0.535090
0.591787 0.124969 0.525496
0.623219 0.139343 0.521563
0.078074 0.143601 0.578940
0.127755 0.128292 0.605849
0.224354 0.132560 0.629050
0.328245 0.137062 0.639511
0.434795 0.145334 0.637464
0.529081 0.158084 0.624041
0.607027 0.175854 0.606717
0.666494 0.194480 0.589653
0.699345 0.209691 0.584981
0.068760 0.231248 0.638601
0.138782 0.236739 0.670526
0.239513 0.239487 0.699589
0.353323 0.238194 0.715862
0.478908 0.242062 0.722449
0.595297 0.249464 0.711932
0.689598 0.261860 0.689368
0.756804 0.278388 0.665218
0.791680 0.293685 0.657643
0.073968 0.352638 0.680946
0.137051 0.355231 0.711233
0.238762 0.360333 0.738145
0.358942 0.359523 0.750638
0.493565 0.361666 0.760327
0.626952 0.358886 0.756822
0.754196 0.363145 0.755213
0.854423 0.369984 0.741246
0.892260 0.382891 0.725995
0.084921 0.479078 0.699213
0.143364 0.487968 0.729818
0.240190 0.491894 0.750516
0.354413 0.493264 0.769779
0.489795 0.489935 0.796814
0.631912 0.490197 0.770540
0.767201 0.490423 0.767157
0.887781 0.490798 0.761853
0.912189 0.488920 0.746985
0.116410 0.604962 0.710914
0.156429 0.619130 0.738094
0.243345 0.623476 0.751821
0.357066 0.627938 0.761512
0.486531 0.628962 0.768194
0.628741 0.628528 0.773481
0.768226 0.623763 0.768738
0.895973 0.623634 0.763743
0.914975 0.614880 0.748242
0.180359 0.716316 0.716388
0.205618 0.733760 0.734205
0.263638 0.753636 0.754693
0.362336 0.758299 0.758011
0.484120 0.761883 0.760898
0.618908 0.762705 0.763082
0.768627 0.768627 0.768627
0.894942 0.756310 0.754789
0.916361 0.739669 0.739671
0.259569 0.817246 0.736397
0.316426 0.827378 0.743640
0.341335 0.853727 0.754369
0.382927 0.879614 0.760311
0.491116 0.886311 0.758776
0.615369 0.887368 0.753567
0.747144 0.886852 0.746904
0.882309 0.883958 0.743917
0.913816 0.868567 0.738018
0.351524 0.865508 0.754347
0.372652 0.887450 0.761821
0.398964 0.908625 0.767314
0.428107 0.911446 0.760376
0.498377 0.914160 0.749276
0.613550 0.915430 0.743209
0.736474 0.916037 0.735650
0.862537 0.915865 0.731601
0.912598 0.915573 0.730098
0.126376 0.126430 0.527243
0.166185 0.115061 0.549996
0.219095 0.099775 0.568127
0.280738 0.085072 0.579731
0.359467 0.086835 0.584960
0.438823 0.101041 0.582392
0.510210 0.119796 0.577210
0.570174 0.139741 0.571516
0.602442 0.152067 0.567860
0.083527 0.141576 0.595271
0.136500 0.137270 0.621933
0.221248 0.143920 0.645352
0.313128 0.151069 0.659900
0.408313 0.162069 0.665956
0.498383 0.175170 0.661465
0.577168 0.192321 0.652700
0.641167 0.210989 0.642942
0.675151 0.222977 0.637194
0.090830 0.234578 0.663501
0.158779 0.241899 0.697850
0.246200 0.246576 0.729626
0.347473 0.250094 0.751937
0.456937 0.256029 0.761694
0.561887 0.264450 0.756541
0.652647 0.277977 0.742762
0.725693 0.295662 0.727470
0.760855 0.305474 0.716725
0.105949 0.348479 0.718930
0.167923 0.355392 0.758159
0.255556 0.362038 0.799250
0.363752 0.362760 0.829781
0.486859 0.364268 0.846676
0.613021 0.367675 0.848923
0.726184 0.373252 0.837540
0.816180 0.387200 0.818625
0.856176 0.396686 0.802981
0.125699 0.471849 0.757978
0.178360 0.482204 0.799621
0.256402 0.488788 0.841127
0.358606 0.492036 0.888002
0.490812 0.491732 0.903964
0.629401 0.494249 0.886977
0.760922 0.494069 0.886513
0.878325 0.495025 0.880398
0.911073 0.497543 0.865336
0.159449 0.597694 0.782592
0.197305 0.610818 0.818530
0.262934 0.622636 0.857916
0.365760 0.627002 0.877688
0.490632 0.626402 0.888809
0.626729 0.626896 0.894636
0.764163 0.626021 0.896600
0.889147 0.624569 0.892062
0.914048 0.617768 0.874252
0.211500 0.712181 0.797586
0.239190 0.730999 0.827766
0.283493 0.747457 0.858823
0.369978 0.756026 0.878652
0.489431 0.759072 0.888430
0.621182 0.760531 0.894247
0.758006 0.757383 0.897159
0.891720 0.755442 0.894055
0.916209 0.740433 0.873826
0.276837 0.814180 0.814438
0.336219 0.826925 0.827299
0.360181 0.850821 0.850883
0.394536 0.876302 0.877240
0.493204 0.885127 0.886418
0.615564 0.887713 0.888417
0.746135 0.886854 0.886874
0.894118 0.894118 0.894118
0.915197 0.865871 0.866273
0.364620 0.867358 0.826275
0.384940 0.889178 0.841720
0.409694 0.909053 0.860628
0.433412 0.911489 0.869182
0.497038 0.914226 0.868122
0.609221 0.915544 0.866745
0.731630 0.916178 0.864096
0.859283 0.915985 0.862174
0.912410 0.915545 0.858196
0.126615 0.126549 0.534452
0.162372 0.116343 0.556243
0.211931 0.102118 0.576087
0.269592 0.087943 0.590645
0.348272 0.096682 0.600016
0.425372 0.112528 0.602218
0.496078 0.130842 0.600912
0.556671 0.149896 0.597741
0.590260 0.162788 0.596736
0.087064 0.140389 0.601855
0.143978 0.143240 0.628776
0.220361 0.150913 0.651577
0.308125 0.162856 0.671628
0.396170 0.173096 0.680035
0.482893 0.187611 0.682132
0.560150 0.203741 0.677702
0.624855 0.221389 0.671261
0.661170 0.234130 0.668390
0.107379 0.236990 0.673775
0.170560 0.244674 0.705348
0.251671 0.252085 0.737025
0.344835 0.258652 0.761515
0.446649 0.267579 0.776441
0.544454 0.276695 0.776967
0.632510 0.290333 0.769869
0.705169 0.306078 0.758494
0.743462 0.317028 0.751690
0.131122 0.349445 0.736963
0.189927 0.357377 0.774360
0.270335 0.364530 0.815487
0.369952 0.370399 0.851534
0.481867 0.372711 0.872538
0.597696 0.377259 0.878316
0.704369 0.385721 0.871584
0.791042 0.399226 0.855405
0.834223 0.409042 0.844084
0.154878 0.469978 0.785764
0.204827 0.479786 0.826521
0.278531 0.489172 0.874758
0.372972 0.493216 0.910497
0.489011 0.489155 0.912230
0.617603 0.491287 0.911989
0.741045 0.491286 0.912165
0.856097 0.499665 0.911389
0.909086 0.506823 0.910768
0.187461 0.592755 0.819138
0.226721 0.605670 0.858807
0.286550 0.618261 0.904816
0.374125 0.618760 0.911349
0.489813 0.618607 0.913602
0.617252 0.617838 0.915892
0.745503 0.616468 0.917196
0.865399 0.615324 0.917030
0.911452 0.616231 0.915888
0.235146 0.708468 0.842530
0.263752 0.725043 0.876010
0.308091 0.743635 0.909638
0.379251 0.745213 0.912397
0.488563 0.744021 0.915420
0.611113 0.742405 0.918573
0.739978 0.739853 0.920691
0.864795 0.736726 0.921013
0.912368 0.737626 0.919870
0.331166 0.803744 0.850629
0.355066 0.825503 0.877160
0.381922 0.847573 0.906818
0.412009 0.862812 0.911836
0.489794 0.864414 0.915972
0.607757 0.864925 0.918679
0.731753 0.864080 0.920540
0.858080 0.860578 0.920732
0.912256 0.859679 0.920043
0.377720 0.867305 0.870978
0.398802 0.888304 0.892240
0.424539 0.908534 0.909709
0.448295 0.911071 0.911795
0.501515 0.913038 0.915956
0.610895 0.913795 0.917658
0.727973 0.914130 0.918434
0.853921 0.913879 0.918462
0.921569 0.921569 0.921569
