HollywoodCinema_Ultimate_v6.7B_1.5IRE_Instagram8bit_NeutralShadows.cube
TITLE "Hollywood Cinema Ultimate v6.7C 1.5IRE_Instagram8bit_TVRange - Neutral Shadows"
LUT_3D_SIZE 5
0.031373 0.031373 0.031373
0.173972 0.068187 0.068313
0.437289 0.073271 0.073171
0.595375 0.066419 0.066362
0.638644 0.100937 0.101338
0.050749 0.227678 0.051027
0.232559 0.233674 0.037717
0.481427 0.236414 0.047576
0.662353 0.255009 0.087401
0.724181 0.287897 0.156699
0.067159 0.474078 0.066627
0.239030 0.488864 0.046788
0.489908 0.490176 0.048995
0.701293 0.498103 0.138191
0.806416 0.517648 0.219976
0.240298 0.671307 0.240002
0.360990 0.700853 0.220412
0.542332 0.725535 0.216472
0.736890 0.737602 0.294190
0.853670 0.753520 0.377880
0.385600 0.816980 0.385931
0.512317 0.842696 0.412116
0.649545 0.877642 0.417724
0.806952 0.905686 0.445064
0.910237 0.910567 0.482276
0.063564 0.063440 0.141921
0.178101 0.068945 0.178169
0.437204 0.065914 0.233286
0.618975 0.065395 0.223662
0.665223 0.101715 0.232831
0.051124 0.229555 0.229420
0.235294 0.235294 0.235294
0.496292 0.231693 0.232057
0.747792 0.236713 0.236397
0.809226 0.272327 0.272323
0.052648 0.486186 0.243007
0.227564 0.493524 0.226402
0.492853 0.493155 0.216801
0.756304 0.495135 0.241375
0.881162 0.510011 0.301268
0.194536 0.697417 0.340532
0.303877 0.730139 0.302812
0.506151 0.751643 0.267880
0.753228 0.753720 0.310905
0.895229 0.758567 0.400969
0.383566 0.829804 0.486103
0.475241 0.868887 0.475143
0.617206 0.904433 0.458936
0.794584 0.910689 0.463709
0.911051 0.911553 0.495152
0.102309 0.102384 0.360015
0.229639 0.084819 0.399106
0.441162 0.057016 0.440514
0.591098 0.076928 0.405578
0.658769 0.114294 0.390633
0.054466 0.232201 0.455228
0.233623 0.234762 0.482954
0.497964 0.231457 0.498664
0.746770 0.236012 0.487359
0.831828 0.272096 0.473169
0.055864 0.485394 0.485631
0.224989 0.493433 0.494586
0.498039 0.498039 0.498039
0.775206 0.487951 0.487942
0.912608 0.489826 0.489178
0.157864 0.716386 0.514855
0.255763 0.752017 0.500074
0.488592 0.762124 0.487269
0.758810 0.759238 0.477819
0.911194 0.748043 0.501241
0.353751 0.852200 0.603637
0.424955 0.898073 0.593132
0.545122 0.911443 0.545574
0.751881 0.914259 0.503819
0.912320 0.914475 0.514635
0.125654 0.125676 0.513995
0.231271 0.095687 0.551883
0.381908 0.073064 0.556413
0.535707 0.104180 0.535090
0.623219 0.139343 0.521563
0.068760 0.231248 0.638601
0.239513 0.239487 0.699589
0.478908 0.242062 0.722449
0.689598 0.261860 0.689368
0.791680 0.293685 0.657643
0.084921 0.479078 0.699213
0.240190 0.491894 0.750516
0.489795 0.489935 0.796814
0.767201 0.490423 0.767157
0.912189 0.488920 0.746985
0.180359 0.716316 0.716388
0.263638 0.753636 0.754693
0.484120 0.761883 0.760898
0.768627 0.768627 0.768627
0.916361 0.739669 0.739671
0.351524 0.865508 0.754347
0.398964 0.908625 0.767314
0.498377 0.914160 0.749276
0.736474 0.916037 0.735650
0.912598 0.915573 0.730098
0.126615 0.126549 0.534452
0.211931 0.102118 0.576087
0.348272 0.096682 0.600016
0.496078 0.130842 0.600912
0.590260 0.162788 0.596736
0.107379 0.236990 0.673775
0.251671 0.252085 0.737025
0.446649 0.267579 0.776441
0.632510 0.290333 0.769869
0.743462 0.317028 0.751690
0.154878 0.469978 0.785764
0.278531 0.489172 0.874758
0.489011 0.489155 0.912230
0.741045 0.491286 0.912165
0.909086 0.506823 0.910768
0.235146 0.708468 0.842530
0.308091 0.743635 0.909638
0.488563 0.744021 0.915420
0.739978 0.739853 0.920691
0.912368 0.737626 0.919870
0.377720 0.867305 0.870978
0.424539 0.908534 0.909709
0.501515 0.913038 0.915956
0.727973 0.914130 0.918434
0.921569 0.921569 0.921569
