HollywoodCinema_Ultimate_v6.7B_1.5IRE_Instagram8bit_NeutralShadows.cube
TITLE "Hollywood Cinema Ultimate v6.7C 1.5IRE_Instagram8bit_TVRange - Neutral Shadows"
LUT_3D_SIZE 33
0.031373 0.031373 0.031373
0.046269 0.037297 0.037167
0.060627 0.042938 0.042931
0.073535 0.047845 0.047941
0.089033 0.052779 0.052804
0.107836 0.057125 0.057198
0.128580 0.061154 0.061170
0.151305 0.065078 0.064925
0.173972 0.068187 0.068313
0.196509 0.071231 0.071173
0.225612 0.073858 0.074005
0.257009 0.075730 0.075431
0.292658 0.077099 0.076817
0.326968 0.077271 0.076965
0.363843 0.076715 0.076426
0.401338 0.075450 0.075384
0.437289 0.073271 0.073171
0.477715 0.070378 0.069789
0.512546 0.066844 0.067095
0.540531 0.063947 0.064383
0.556960 0.062219 0.062237
0.569709 0.060918 0.060597
0.580129 0.059905 0.059926
0.587741 0.061428 0.061698
0.595375 0.066419 0.066362
0.602661 0.071456 0.071173
0.610610 0.077032 0.077105
0.617562 0.082385 0.082267
0.622955 0.086773 0.086557
0.628062 0.091108 0.091007
0.632424 0.094930 0.095239
0.636553 0.098873 0.099223
0.638644 0.100937 0.101338
0.041306 0.049414 0.040929
0.050426 0.050662 0.041979
0.063930 0.055458 0.047105
0.077522 0.059323 0.051097
0.093105 0.062315 0.054817
0.116168 0.067332 0.059405
0.137299 0.070844 0.062712
0.161283 0.074318 0.065855
0.185125 0.077341 0.068583
0.207106 0.079406 0.070468
0.231920 0.081485 0.072377
0.266977 0.084003 0.073402
0.299727 0.084164 0.073026
0.335041 0.083676 0.072272
0.373679 0.082808 0.070100
0.409573 0.080274 0.068005
0.446250 0.077413 0.064363
0.485626 0.073439 0.060639
0.520646 0.069476 0.055865
0.547876 0.065824 0.053237
0.567363 0.063542 0.050260
0.581682 0.065861 0.052770
0.590950 0.069711 0.057266
0.601268 0.075655 0.063749
0.607550 0.079484 0.067933
0.615118 0.085064 0.073152
0.623128 0.091458 0.079325
0.628898 0.096300 0.084334
0.635148 0.102291 0.089705
0.640599 0.107630 0.094723
0.644902 0.111710 0.099194
0.648066 0.114558 0.102898
0.652364 0.119151 0.106664
0.048902 0.065126 0.048668
0.058095 0.066923 0.049668
0.068772 0.068717 0.050590
0.082355 0.071813 0.053951
0.101469 0.076090 0.057869
0.124503 0.080722 0.061335
0.145815 0.083590 0.064023
0.169614 0.087361 0.066652
0.194092 0.090828 0.068942
0.217505 0.092129 0.069958
0.244902 0.094330 0.070327
0.274316 0.094497 0.069997
0.311397 0.094757 0.067578
0.346941 0.092973 0.064911
0.382800 0.089994 0.062077
0.423565 0.086697 0.057623
0.462729 0.082544 0.051641
0.497341 0.077525 0.046808
0.533002 0.072807 0.040498
0.560499 0.075953 0.043248
0.578403 0.077748 0.047417
0.593502 0.082450 0.052804
0.603416 0.085900 0.058138
0.612972 0.091965 0.063532
0.621661 0.098190 0.069809
0.629086 0.104519 0.075346
0.637149 0.111601 0.082060
0.642430 0.116151 0.086989
0.648909 0.121980 0.093378
0.655244 0.128198 0.099504
0.659170 0.131702 0.104042
0.662802 0.134978 0.108206
0.666164 0.138432 0.111416
0.055410 0.083184 0.055245
0.063923 0.085240 0.055693
0.074900 0.086682 0.055648
0.088444 0.088598 0.056180
0.107334 0.091189 0.058987
0.131617 0.097287 0.061872
0.154797 0.100869 0.063577
0.176242 0.103114 0.065316
0.202714 0.106774 0.066573
0.226550 0.108059 0.067362
0.256338 0.110617 0.067086
0.280796 0.109896 0.066600
0.314196 0.109028 0.063645
0.351896 0.106446 0.058489
0.391063 0.102673 0.052347
0.428506 0.096278 0.046543
0.465676 0.096312 0.044385
0.500627 0.094732 0.042092
0.534709 0.094337 0.041665
0.563352 0.094627 0.043171
0.584950 0.098080 0.046492
0.601306 0.101610 0.051550
0.614222 0.106760 0.057690
0.624917 0.113049 0.064063
0.634792 0.120525 0.070860
0.642350 0.126440 0.076763
0.650039 0.132614 0.083600
0.657029 0.138617 0.090196
0.663252 0.143591 0.097226
0.669229 0.149165 0.103594
0.674699 0.154528 0.109168
0.677458 0.156340 0.113169
0.680227 0.159039 0.116022
0.059750 0.106877 0.059549
0.068376 0.108427 0.059330
0.080468 0.111589 0.059207
0.095644 0.113681 0.058232
0.115122 0.115420 0.057682
0.139178 0.119688 0.061255
0.161298 0.121480 0.061985
0.187436 0.124997 0.062245
0.211140 0.124957 0.061965
0.237233 0.125822 0.061218
0.269617 0.128083 0.059015
0.298838 0.126683 0.056560
0.328207 0.123055 0.052886
0.361735 0.123190 0.049832
0.394850 0.124137 0.049699
0.424866 0.122961 0.049469
0.458049 0.124349 0.048978
0.494730 0.123346 0.047651
0.527457 0.123597 0.046667
0.559306 0.124713 0.047388
0.583748 0.127457 0.050495
0.602680 0.128631 0.054810
0.617676 0.133637 0.060057
0.631247 0.139658 0.066612
0.641528 0.143721 0.072345
0.650851 0.148621 0.078544
0.662046 0.157627 0.087169
0.670232 0.163501 0.094430
0.677163 0.168199 0.101515
0.684156 0.173730 0.108940
0.688207 0.176541 0.113518
0.692727 0.180082 0.118584
0.694976 0.181467 0.121441
0.062031 0.136091 0.061923
0.071012 0.137492 0.060885
0.083017 0.138194 0.059078
0.100533 0.141481 0.057728
0.121248 0.142526 0.056061
0.142495 0.143078 0.053878
0.167461 0.145356 0.057948
0.193273 0.145461 0.056427
0.221473 0.147648 0.054123
0.251243 0.147953 0.050807
0.278237 0.147637 0.050120
0.307440 0.149486 0.051106
0.336076 0.148099 0.050322
0.369385 0.150582 0.050142
0.400041 0.150524 0.049652
0.432142 0.149794 0.049123
0.464758 0.151048 0.048956
0.496553 0.152469 0.048758
0.525612 0.151051 0.049625
0.555900 0.152874 0.050835
0.578509 0.153450 0.053922
0.598206 0.157919 0.058768
0.616301 0.163416 0.065263
0.629623 0.167422 0.070685
0.643300 0.173762 0.078128
0.654205 0.176980 0.084458
0.664561 0.182202 0.091857
0.674333 0.187119 0.099857
0.683314 0.192936 0.108112
0.690768 0.198477 0.115182
0.697223 0.201607 0.121127
0.701713 0.204618 0.125436
0.704860 0.206551 0.128464
0.060478 0.165647 0.060450
0.069939 0.166167 0.058463
0.082603 0.167932 0.056016
0.099951 0.170384 0.053428
0.122592 0.171533 0.049899
0.146416 0.172660 0.046681
0.174741 0.175018 0.042296
0.199200 0.173180 0.050002
0.227620 0.174606 0.049784
0.254126 0.175121 0.049514
0.283983 0.175552 0.049854
0.312820 0.176782 0.050285
0.342067 0.175924 0.049627
0.374310 0.177380 0.048829
0.406518 0.177384 0.048314
0.437442 0.177077 0.047792
0.471914 0.180253 0.048081
0.502521 0.179575 0.047759
0.535630 0.180786 0.048860
0.561644 0.180170 0.050460
0.587028 0.183940 0.055212
0.603224 0.184716 0.060686
0.619158 0.190856 0.068015
0.631711 0.194394 0.074987
0.644186 0.200101 0.082799
0.655853 0.205229 0.091129
0.667993 0.212183 0.101319
0.676889 0.215454 0.108778
0.686729 0.220339 0.117308
0.695339 0.225576 0.125010
0.701153 0.227694 0.129844
0.706627 0.231819 0.134956
0.710122 0.233057 0.137865
0.055716 0.194694 0.055501
0.065186 0.196485 0.052652
0.077936 0.199190 0.048395
0.095678 0.199567 0.045907
0.120550 0.199915 0.044031
0.147497 0.202975 0.042944
0.176089 0.203502 0.041492
0.203635 0.203176 0.040144
0.231642 0.204894 0.048941
0.259727 0.204469 0.049454
0.287508 0.204324 0.048864
0.318450 0.205233 0.048938
0.347091 0.204140 0.048194
0.379538 0.205888 0.047381
0.412024 0.206186 0.047281
0.444311 0.206357 0.046487
0.476885 0.206641 0.046626
0.505575 0.206438 0.046828
0.540963 0.209132 0.047830
0.567549 0.208564 0.049986
0.592601 0.211595 0.054591
0.611580 0.214515 0.060924
0.627245 0.218130 0.068174
0.640687 0.221683 0.076148
0.652456 0.226471 0.084967
0.663510 0.232560 0.095203
0.673027 0.237642 0.106021
0.683040 0.243703 0.116941
0.692396 0.248526 0.126619
0.699485 0.251241 0.133493
0.706281 0.255978 0.140043
0.711197 0.258350 0.144592
0.715204 0.260746 0.148323
0.050749 0.227678 0.051027
0.063177 0.228464 0.049397
0.078024 0.229601 0.047926
0.098135 0.230933 0.045953
0.122532 0.232249 0.044303
0.149088 0.234047 0.042436
0.174056 0.232247 0.040942
0.203488 0.233812 0.039205
0.232559 0.233674 0.037717
0.262569 0.233607 0.046033
0.291757 0.235047 0.047932
0.322782 0.235246 0.046930
0.352655 0.235224 0.046124
0.383565 0.235145 0.046335
0.415984 0.234852 0.046719
0.449173 0.236611 0.047194
0.481427 0.236414 0.047576
0.513296 0.237360 0.047998
0.543523 0.236102 0.048309
0.574800 0.239626 0.049300
0.597640 0.240304 0.054118
0.617430 0.242182 0.060678
0.633923 0.245586 0.068686
0.648447 0.249221 0.077249
0.662353 0.255009 0.087401
0.674083 0.259860 0.098504
0.684976 0.265138 0.110572
0.695271 0.270894 0.122338
0.703745 0.276037 0.132104
0.709485 0.278003 0.139597
0.716344 0.282422 0.147669
0.720444 0.284824 0.152658
0.724181 0.287897 0.156699
0.049974 0.256681 0.049755
0.062656 0.259793 0.048488
0.078341 0.260867 0.047077
0.097635 0.261567 0.045197
0.122887 0.263189 0.042774
0.148881 0.264099 0.040983
0.174893 0.262691 0.038678
0.205006 0.264571 0.037157
0.234133 0.265568 0.034024
0.264896 0.264595 0.032697
0.295622 0.265268 0.041361
0.325250 0.265543 0.046871
0.355567 0.265576 0.047240
0.387083 0.264666 0.047584
0.420473 0.266347 0.048054
0.451275 0.265381 0.048383
0.483411 0.265486 0.048771
0.516859 0.266998 0.049228
0.547136 0.266428 0.049562
0.576340 0.268251 0.049978
0.600695 0.269661 0.054738
0.621784 0.272358 0.062032
0.640120 0.275983 0.070787
0.655732 0.278796 0.079392
0.669040 0.281429 0.088826
0.682231 0.286525 0.100979
0.695182 0.293328 0.114491
0.705373 0.297434 0.126039
0.715162 0.302578 0.137150
0.722363 0.306089 0.145600
0.729946 0.311062 0.154156
0.733685 0.312198 0.158954
0.736726 0.313730 0.162634
0.048908 0.288671 0.048701
0.062407 0.291328 0.047084
0.077180 0.292921 0.045546
0.096108 0.292597 0.043554
0.120112 0.292426 0.041273
0.147354 0.294667 0.038465
0.175207 0.295804 0.035494
0.203066 0.294337 0.033930
0.235704 0.297603 0.031611
0.263898 0.296015 0.031611
0.294904 0.294983 0.031611
0.327989 0.297023 0.040632
0.356124 0.294477 0.048416
0.389581 0.297381 0.048931
0.422213 0.296565 0.049285
0.453065 0.295279 0.049597
0.484862 0.295365 0.049975
0.517295 0.297656 0.050444
0.546990 0.297679 0.050791
0.577375 0.299358 0.051209
0.602278 0.299873 0.056846
0.623520 0.300750 0.063735
0.643682 0.304879 0.072423
0.662315 0.309104 0.082597
0.676275 0.311226 0.092214
0.690446 0.315567 0.105074
0.704254 0.321523 0.119040
0.714573 0.323905 0.130409
0.724323 0.328500 0.141096
0.734037 0.334496 0.151646
0.740282 0.336508 0.159060
0.745151 0.338997 0.164632
0.748965 0.340641 0.169141
0.047891 0.321680 0.048009
0.061312 0.323492 0.046297
0.076417 0.324542 0.044185
0.095979 0.325465 0.041242
0.121492 0.327934 0.038980
0.146548 0.327498 0.035538
0.172772 0.326003 0.033817
0.203814 0.328939 0.031611
0.232954 0.329507 0.031611
0.264883 0.329682 0.031611
0.297615 0.329968 0.031611
0.328474 0.328827 0.031611
0.361914 0.328900 0.040737
0.391145 0.328542 0.050184
0.422317 0.328082 0.050530
0.454319 0.328678 0.050926
0.486387 0.328655 0.051296
0.516585 0.327141 0.051586
0.547338 0.327654 0.051960
0.577559 0.329631 0.053849
0.603189 0.331980 0.059853
0.626374 0.332878 0.067063
0.647108 0.335352 0.075450
0.665332 0.337585 0.084785
0.683844 0.343532 0.097935
0.697920 0.346526 0.110236
0.710554 0.348347 0.122514
0.723853 0.354349 0.135965
0.734601 0.358221 0.147333
0.743636 0.361127 0.157252
0.751441 0.365539 0.165632
0.756390 0.366986 0.171282
0.760655 0.369575 0.175904
0.048566 0.354643 0.048728
0.060521 0.354507 0.045804
0.075378 0.355761 0.043337
0.093810 0.355807 0.040420
0.119349 0.359296 0.037607
0.145136 0.358011 0.034296
0.171962 0.360140 0.031758
0.202347 0.361764 0.031611
0.231235 0.361205 0.031611
0.263628 0.361971 0.031611
0.296412 0.362348 0.031611
0.327815 0.361169 0.031611
0.361735 0.361015 0.031611
0.394011 0.360712 0.039792
0.424077 0.360316 0.051801
0.452584 0.358024 0.052045
0.486024 0.360440 0.052521
0.517244 0.359468 0.052839
0.548043 0.360630 0.053233
0.578049 0.362780 0.057328
0.603458 0.362728 0.063387
0.626933 0.363682 0.070225
0.648602 0.365738 0.078929
0.669344 0.369502 0.089554
0.687591 0.372865 0.102394
0.703707 0.375653 0.115868
0.718943 0.380085 0.129743
0.732312 0.383796 0.142716
0.743768 0.387604 0.154223
0.752676 0.389205 0.163564
0.760946 0.393524 0.172156
0.766881 0.395470 0.178541
0.770528 0.396766 0.182486
0.048752 0.383959 0.048411
0.060426 0.386493 0.046382
0.075044 0.388029 0.043826
0.095069 0.392304 0.040750
0.118563 0.391105 0.037258
0.144549 0.391757 0.033455
0.173697 0.393412 0.031970
0.203977 0.394291 0.031611
0.230785 0.392448 0.031611
0.263230 0.394019 0.031611
0.296572 0.394919 0.031611
0.329231 0.395361 0.031611
0.358487 0.391851 0.031611
0.394952 0.394171 0.031611
0.426206 0.393161 0.038560
0.455601 0.393153 0.052594
0.487250 0.391740 0.053730
0.517857 0.392505 0.054103
0.547174 0.392293 0.056649
0.576711 0.393956 0.061684
0.604328 0.395223 0.068410
0.627990 0.395266 0.075297
0.652789 0.399185 0.085769
0.671436 0.399010 0.095019
0.691473 0.404511 0.109320
0.707590 0.405228 0.121699
0.725245 0.410912 0.137004
0.738274 0.412896 0.148767
0.751664 0.417307 0.161534
0.761120 0.418407 0.170822
0.769936 0.422264 0.179618
0.776130 0.424575 0.185900
0.781642 0.428198 0.191472
0.050359 0.417876 0.051136
0.062579 0.419607 0.048141
0.077209 0.420064 0.045421
0.096786 0.421677 0.043308
0.121723 0.423684 0.041237
0.148198 0.424157 0.038772
0.175967 0.424960 0.036287
0.204258 0.425325 0.035100
0.233663 0.424726 0.033059
0.265454 0.426625 0.032404
0.294750 0.425099 0.031611
0.327502 0.425973 0.031611
0.360947 0.427139 0.031611
0.392087 0.426255 0.031611
0.426180 0.426090 0.031611
0.456961 0.423772 0.037696
0.487039 0.424426 0.054002
0.519490 0.425499 0.059273
0.549336 0.426775 0.063445
0.578348 0.426889 0.068356
0.605475 0.428814 0.075117
0.629535 0.428633 0.082519
0.654059 0.431045 0.092953
0.674894 0.432684 0.104334
0.695217 0.435877 0.118075
0.712408 0.437588 0.130519
0.729831 0.440826 0.144220
0.746010 0.444485 0.158041
0.758817 0.447297 0.169563
0.769749 0.450402 0.179786
0.777872 0.450814 0.187470
0.785716 0.455966 0.195195
0.789839 0.455224 0.199206
0.057974 0.446772 0.057639
0.070136 0.450885 0.055961
0.082229 0.450140 0.052661
0.102762 0.452659 0.049688
0.126224 0.453945 0.046569
0.152531 0.455139 0.044218
0.177686 0.454654 0.041803
0.206017 0.455911 0.040391
0.236078 0.458027 0.038568
0.266629 0.459289 0.038178
0.296958 0.458278 0.036435
0.328497 0.459198 0.035475
0.359333 0.458392 0.034708
0.391262 0.457972 0.035416
0.425846 0.458989 0.036557
0.458239 0.459209 0.037764
0.492269 0.459117 0.045750
0.518382 0.456301 0.061796
0.548661 0.458574 0.070223
0.576927 0.458926 0.075410
0.604583 0.459314 0.082473
0.630940 0.461952 0.091798
0.654613 0.461986 0.101698
0.677921 0.464277 0.113448
0.698040 0.464819 0.125753
0.717060 0.469267 0.139767
0.736533 0.473280 0.155099
0.751404 0.475454 0.167241
0.765027 0.477021 0.178696
0.776489 0.480126 0.188904
0.786021 0.482081 0.197474
0.793311 0.484466 0.204234
0.798059 0.485403 0.208622
0.067159 0.474078 0.066627
0.078302 0.476953 0.064914
0.092757 0.478095 0.061881
0.113444 0.481797 0.059471
0.134418 0.482152 0.056015
0.160289 0.486495 0.054261
0.185137 0.486923 0.051390
0.212323 0.488724 0.049317
0.239030 0.488864 0.046788
0.270468 0.491018 0.046027
0.299669 0.491320 0.044037
0.331991 0.492365 0.044284
0.362182 0.490893 0.042689
0.391881 0.490654 0.043091
0.427673 0.492467 0.045221
0.457988 0.491417 0.046146
0.489908 0.490176 0.048995
0.521675 0.490218 0.055894
0.550264 0.489847 0.074171
0.579647 0.491911 0.084270
0.608057 0.493561 0.090859
0.632128 0.492600 0.098997
0.656016 0.493967 0.110554
0.679006 0.494597 0.123186
0.701293 0.498103 0.138191
0.721906 0.502373 0.153123
0.738169 0.502734 0.164320
0.756973 0.507891 0.179339
0.770010 0.507761 0.189011
0.783021 0.510953 0.199765
0.793520 0.514454 0.208822
0.800650 0.514410 0.214651
0.806416 0.517648 0.219976
0.080224 0.501099 0.080242
0.091084 0.503129 0.077274
0.107861 0.506028 0.074378
0.128194 0.510482 0.072548
0.148249 0.511898 0.069203
0.171474 0.514166 0.066330
0.195321 0.516084 0.063307
0.220134 0.517309 0.060729
0.248120 0.518936 0.058219
0.277112 0.522166 0.057374
0.305299 0.521840 0.055492
0.332152 0.520304 0.053816
0.367359 0.524093 0.055367
0.394984 0.522416 0.054601
0.428796 0.524162 0.056285
0.458705 0.521903 0.057062
0.492676 0.523720 0.057296
0.523666 0.524163 0.059025
0.556256 0.524790 0.066119
0.581502 0.523097 0.084370
0.607252 0.524515 0.103322
0.634243 0.526305 0.116075
0.659347 0.528512 0.129206
0.681421 0.528648 0.140492
0.701707 0.528317 0.151441
0.723035 0.530779 0.164616
0.743412 0.535648 0.178778
0.761211 0.537728 0.191010
0.776157 0.540007 0.201914
0.789443 0.541849 0.211903
0.800573 0.545331 0.221014
0.808407 0.546573 0.227237
0.813722 0.547592 0.231561
0.100525 0.528369 0.100264
0.113349 0.530645 0.096205
0.128479 0.533122 0.091912
0.145518 0.535901 0.088178
0.164779 0.538691 0.084515
0.186874 0.542476 0.081639
0.208450 0.543716 0.077927
0.231604 0.545505 0.075104
0.257620 0.547460 0.072655
0.285432 0.549683 0.070896
0.311148 0.549541 0.069002
0.340129 0.550951 0.068261
0.371268 0.552999 0.066837
0.398983 0.553288 0.064493
0.431361 0.555871 0.064348
0.463293 0.556590 0.065198
0.493846 0.555726 0.066964
0.524991 0.554705 0.071003
0.556582 0.556341 0.078108
0.586650 0.557967 0.089049
0.611998 0.557358 0.114290
0.634605 0.556621 0.134487
0.660418 0.558066 0.145933
0.683219 0.559572 0.156544
0.706201 0.562051 0.168747
0.727214 0.564152 0.180606
0.747619 0.566675 0.193089
0.764281 0.566598 0.202986
0.783148 0.573041 0.217202
0.795464 0.572629 0.225167
0.806350 0.574845 0.233296
0.814362 0.575358 0.239072
0.821231 0.578296 0.244818
0.122787 0.552501 0.122709
0.132579 0.553577 0.118095
0.151009 0.559267 0.115696
0.166241 0.561736 0.111094
0.184922 0.565381 0.107144
0.202581 0.566537 0.101326
0.225050 0.570608 0.098245
0.249091 0.574485 0.095533
0.271826 0.575185 0.090861
0.294603 0.576340 0.086410
0.321203 0.579483 0.083761
0.349401 0.581725 0.081590
0.376099 0.582727 0.079963
0.406224 0.583871 0.079681
0.436801 0.584981 0.081456
0.467470 0.585901 0.084424
0.498616 0.586460 0.088628
0.530659 0.587492 0.095076
0.560141 0.589220 0.101208
0.588380 0.587964 0.106648
0.616355 0.588086 0.116893
0.640947 0.589239 0.140660
0.663909 0.589951 0.163084
0.687369 0.591788 0.175307
0.710460 0.593893 0.186522
0.731156 0.595383 0.197125
0.750960 0.596471 0.207804
0.770400 0.599546 0.219809
0.787168 0.600855 0.230090
0.800710 0.602990 0.239152
0.812564 0.605100 0.247404
0.821619 0.606960 0.253934
0.827637 0.608335 0.258381
0.145553 0.576185 0.145704
0.156044 0.578368 0.142100
0.171730 0.582829 0.139226
0.187521 0.586140 0.135142
0.202875 0.588222 0.130161
0.222508 0.592317 0.126313
0.243894 0.596779 0.122806
0.263857 0.599421 0.118470
0.284791 0.601337 0.113865
0.310042 0.605165 0.111353
0.333944 0.606537 0.107886
0.362258 0.610006 0.107683
0.388701 0.610352 0.105612
0.415759 0.611261 0.105660
0.447712 0.614597 0.109377
0.474521 0.613888 0.109455
0.504726 0.616007 0.113307
0.532999 0.616554 0.116876
0.562970 0.616831 0.121700
0.591722 0.618115 0.128317
0.619092 0.619169 0.135591
0.646263 0.620540 0.145861
0.669430 0.619418 0.167660
0.690791 0.620587 0.189710
0.713528 0.622808 0.203613
0.734778 0.624810 0.213950
0.755381 0.625697 0.224100
0.774708 0.628336 0.235136
0.792911 0.632242 0.246660
0.807526 0.633879 0.255565
0.819241 0.635818 0.263202
0.828257 0.636918 0.269058
0.834495 0.637259 0.273030
0.169082 0.600256 0.169492
0.180614 0.603660 0.166959
0.195555 0.608315 0.164594
0.209483 0.610879 0.160054
0.225569 0.614336 0.156274
0.243650 0.617974 0.152408
0.260811 0.620564 0.148290
0.283973 0.626116 0.146823
0.304019 0.627818 0.142264
0.327531 0.630999 0.139751
0.351179 0.633046 0.137091
0.375847 0.635340 0.135262
0.401147 0.637608 0.134208
0.429272 0.640563 0.134738
0.456329 0.641625 0.134536
0.483735 0.643429 0.136129
0.512474 0.644478 0.138315
0.541130 0.646353 0.142354
0.567598 0.645725 0.145154
0.596489 0.647803 0.151631
0.623788 0.648778 0.158086
0.649622 0.649212 0.164791
0.674979 0.650364 0.174185
0.697397 0.650541 0.194620
0.718647 0.652623 0.217420
0.741448 0.655001 0.233692
0.761825 0.657539 0.243877
0.781591 0.659988 0.254298
0.798627 0.660994 0.263176
0.813118 0.663290 0.271776
0.826571 0.666975 0.280713
0.835093 0.666859 0.285399
0.841181 0.666793 0.288842
0.193076 0.624271 0.193110
0.204916 0.628872 0.192447
0.216933 0.630892 0.187684
0.229758 0.633396 0.183709
0.248607 0.639505 0.182507
0.264928 0.642479 0.178558
0.282142 0.645556 0.175084
0.302558 0.649934 0.172882
0.320281 0.651016 0.167874
0.342810 0.654311 0.165080
0.367328 0.658243 0.163520
0.392435 0.662263 0.162981
0.416451 0.664753 0.161860
0.440471 0.665697 0.160006
0.468685 0.669378 0.161764
0.493812 0.669955 0.161579
0.521489 0.672095 0.164011
0.549967 0.674411 0.167774
0.575864 0.674771 0.170600
0.604395 0.678198 0.177424
0.628879 0.677522 0.181197
0.654915 0.679641 0.188421
0.679703 0.679802 0.194772
0.705858 0.682680 0.205242
0.726946 0.682400 0.223631
0.747243 0.684332 0.245778
0.767470 0.686730 0.262665
0.786552 0.687274 0.271290
0.804453 0.689960 0.280842
0.821374 0.693820 0.290924
0.833142 0.695276 0.297515
0.841359 0.694878 0.301557
0.848285 0.696184 0.305833
0.217755 0.648671 0.217294
0.228850 0.652307 0.215557
0.240066 0.655020 0.212514
0.253959 0.658511 0.209455
0.269137 0.662511 0.206927
0.285128 0.665341 0.202733
0.303004 0.669631 0.200458
0.322159 0.673814 0.198149
0.341931 0.677414 0.195539
0.361200 0.679827 0.192300
0.385671 0.684904 0.191795
0.408250 0.687916 0.190151
0.428896 0.688176 0.186519
0.454688 0.692290 0.187432
0.478625 0.694166 0.187040
0.505595 0.697076 0.188521
0.530106 0.697525 0.188618
0.555233 0.699175 0.190873
0.583367 0.702408 0.195746
0.610578 0.705420 0.201308
0.634125 0.703989 0.203526
0.660986 0.707016 0.210899
0.686771 0.709797 0.218711
0.712173 0.712369 0.227084
0.733904 0.710979 0.233230
0.754766 0.713488 0.251083
0.773556 0.713801 0.271804
0.795360 0.718430 0.291972
0.802506 0.718083 0.335476
0.818294 0.721744 0.344468
0.829674 0.723366 0.350582
0.838398 0.725108 0.355653
0.844271 0.724777 0.358359
0.240298 0.671307 0.240002
0.250785 0.675250 0.239198
0.262348 0.678119 0.236112
0.277878 0.683280 0.234656
0.291793 0.686284 0.231226
0.307642 0.690749 0.229509
0.323549 0.693294 0.225438
0.340596 0.696291 0.222157
0.360990 0.700853 0.220412
0.380459 0.704599 0.218639
0.401403 0.708106 0.216827
0.423587 0.712411 0.216489
0.445344 0.714067 0.213849
0.468102 0.716902 0.213305
0.492936 0.720267 0.213964
0.517202 0.722087 0.213930
0.542332 0.725535 0.216472
0.568156 0.727017 0.217952
0.591646 0.728135 0.219967
0.618842 0.731562 0.225250
0.643814 0.733436 0.229806
0.667170 0.733976 0.233831
0.693864 0.736961 0.241282
0.716724 0.738185 0.247349
0.736890 0.737602 0.294190
0.759804 0.740582 0.303327
0.779279 0.742651 0.319235
0.796916 0.745227 0.338421
0.812448 0.747021 0.353948
0.826329 0.748888 0.363338
0.838566 0.751250 0.369889
0.848083 0.753572 0.375380
0.853670 0.753520 0.377880
0.265068 0.695872 0.264389
0.273097 0.697656 0.261642
0.285786 0.702079 0.260386
0.298643 0.705763 0.258164
0.313606 0.709954 0.255912
0.328525 0.713411 0.253054
0.346410 0.718739 0.252048
0.361130 0.720869 0.248404
0.381054 0.725664 0.246949
0.401287 0.730301 0.245882
0.419167 0.732349 0.242851
0.440915 0.736805 0.242514
0.462476 0.740181 0.241645
0.485835 0.744039 0.241796
0.507341 0.745991 0.240861
0.530624 0.748442 0.241093
0.553501 0.749974 0.241229
0.580279 0.753796 0.244475
0.602245 0.754219 0.245217
0.628211 0.757693 0.249856
0.654725 0.761343 0.255549
0.680939 0.757800 0.298481
0.702358 0.759732 0.303550
0.726077 0.764238 0.311781
0.746650 0.765526 0.317433
0.767142 0.767160 0.323938
0.788642 0.770177 0.332563
0.808005 0.773147 0.347943
0.823076 0.774360 0.364222
0.836582 0.776532 0.378560
0.847414 0.777922 0.387972
0.855561 0.778455 0.392766
0.863002 0.780638 0.397153
0.286096 0.717450 0.286366
0.294021 0.719357 0.283883
0.307126 0.723850 0.282430
0.320977 0.728644 0.281368
0.334570 0.732526 0.279394
0.350360 0.737200 0.277858
0.366641 0.741416 0.275886
0.381339 0.744298 0.273225
0.399506 0.748422 0.271375
0.418648 0.752993 0.270402
0.437142 0.756027 0.268235
0.457780 0.760273 0.267672
0.476791 0.762265 0.265394
0.500812 0.767683 0.266924
0.523137 0.770734 0.266762
0.544585 0.772987 0.266593
0.566650 0.774923 0.266777
0.592181 0.779452 0.270293
0.623784 0.775182 0.310051
0.646406 0.778265 0.313680
0.667805 0.780300 0.316953
0.689782 0.782525 0.321135
0.712733 0.786535 0.327665
0.733090 0.787699 0.332014
0.755389 0.790960 0.339052
0.776824 0.794745 0.346884
0.796587 0.796873 0.353577
