HollywoodCinema_Ultimate_v6.7B-W80_1.5IRE_Instagram8bit_NeutralShadows.cube
TITLE "Hollywood Cinema Ultimate v6.7C 1.5IRE_Instagram8bit_TVRange - Neutral Shadows - Warm 80%"
LUT_3D_SIZE 9
0.031373 0.031373 0.031373
0.089033 0.052779 0.052804
0.173972 0.068187 0.068313
0.292658 0.077099 0.076817
0.437289 0.073271 0.073171
0.556960 0.062219 0.062237
0.595375 0.066419 0.066362
0.622955 0.086773 0.086557
0.638644 0.100937 0.101338
0.059730 0.106877 0.059569
0.115122 0.115420 0.057682
0.211140 0.124957 0.061965
0.328207 0.123055 0.052886
0.458049 0.124349 0.048978
0.583748 0.127457 0.050495
0.641528 0.143721 0.072345
0.677163 0.168199 0.101515
0.694976 0.181467 0.121441
0.050749 0.227678 0.051027
0.122532 0.232249 0.044303
0.232559 0.233674 0.037717
0.352655 0.235224 0.046124
0.481427 0.236414 0.047576
0.597640 0.240304 0.054118
0.662353 0.255009 0.087401
0.703745 0.276037 0.132104
0.724181 0.287897 0.156699
0.048566 0.354643 0.048728
0.119349 0.359296 0.037607
0.231235 0.361205 0.031611
0.361735 0.361015 0.031611
0.486024 0.360440 0.052521
0.603458 0.362728 0.063387
0.687591 0.372865 0.102394
0.743768 0.387604 0.154223
0.770528 0.396766 0.182486
0.067106 0.474078 0.066680
0.134418 0.482152 0.056015
0.239030 0.488864 0.046788
0.362182 0.490893 0.042689
0.489908 0.490176 0.048995
0.608057 0.493561 0.090859
0.701293 0.498103 0.138191
0.770010 0.507761 0.189011
0.806416 0.517648 0.219976
0.145553 0.576185 0.145704
0.202875 0.588222 0.130161
0.284791 0.601337 0.113865
0.388701 0.610352 0.105612
0.504726 0.616007 0.113307
0.619092 0.619169 0.135591
0.713528 0.622808 0.203613
0.792911 0.632242 0.246660
0.834495 0.637259 0.273030
0.240268 0.671307 0.240032
0.291793 0.686284 0.231226
0.360990 0.700853 0.220412
0.445344 0.714067 0.213849
0.542332 0.725535 0.216472
0.643814 0.733436 0.229806
0.736890 0.737602 0.294190
0.812448 0.747021 0.353948
0.853670 0.753520 0.377880
0.329523 0.760572 0.329263
0.378525 0.778523 0.326575
0.440011 0.795308 0.320871
0.529006 0.801295 0.350440
0.610053 0.818307 0.355854
0.693386 0.831097 0.366273
0.775933 0.842145 0.384460
0.852282 0.853639 0.410051
0.896058 0.859771 0.434675
0.385600 0.816980 0.385931
0.456002 0.823566 0.412289
0.512317 0.842696 0.412116
0.576823 0.860801 0.413194
0.649545 0.877642 0.417724
0.726206 0.892697 0.427620
0.806952 0.905686 0.445064
0.880449 0.909918 0.467038
0.910237 0.910567 0.482276
0.039626 0.049230 0.089261
0.088253 0.054156 0.088498
0.175819 0.068535 0.114195
0.288933 0.075584 0.135025
0.436863 0.070256 0.143687
0.567900 0.055436 0.130734
0.612051 0.064878 0.132607
0.639489 0.086023 0.149330
0.654404 0.100509 0.160071
0.052571 0.110482 0.117535
0.117647 0.117647 0.117647
0.214301 0.126248 0.126445
0.345683 0.119886 0.119726
0.477180 0.120577 0.120374
0.608414 0.120796 0.121525
0.671976 0.138730 0.138899
0.702247 0.164806 0.165182
0.716953 0.179454 0.179359
0.044658 0.227419 0.129366
0.120543 0.233972 0.120527
0.234942 0.235185 0.115096
0.357366 0.236045 0.121848
0.487033 0.236617 0.121923
0.615651 0.237548 0.123301
0.702598 0.247524 0.144804
0.752502 0.266737 0.178977
0.773547 0.278382 0.197664
0.041369 0.353627 0.129038
0.113583 0.358464 0.114803
0.228812 0.362253 0.104411
0.358934 0.360380 0.098686
0.489118 0.359049 0.117461
0.619907 0.362583 0.127341
0.720162 0.367614 0.151774
0.777666 0.382798 0.196921
0.803243 0.393066 0.224750
0.052298 0.484344 0.141879
0.122610 0.487860 0.122070
0.232640 0.492654 0.115122
0.357214 0.492672 0.107508
0.491614 0.493133 0.106999
0.624950 0.491266 0.121239
0.730779 0.496205 0.163847
0.804347 0.507223 0.219675
0.839795 0.515465 0.250434
0.114901 0.588148 0.199097
0.177678 0.604162 0.177318
0.257334 0.617638 0.150424
0.372077 0.623896 0.142263
0.497314 0.624337 0.140584
0.626031 0.626408 0.155735
0.731855 0.626806 0.219121
0.816180 0.631225 0.260861
0.861424 0.638476 0.291441
0.213811 0.684427 0.287934
0.268880 0.700082 0.269326
0.336880 0.715031 0.252161
0.425745 0.729392 0.238856
0.528441 0.737148 0.231346
0.640236 0.743010 0.239486
0.745225 0.744578 0.301541
0.825302 0.750831 0.363915
0.871219 0.757565 0.388285
0.305348 0.772390 0.372336
0.358384 0.789250 0.357833
0.419526 0.807407 0.348653
0.513634 0.815387 0.373482
0.596008 0.829359 0.370278
0.685034 0.841121 0.375966
0.775299 0.850960 0.391816
0.858062 0.859465 0.415865
0.905337 0.866487 0.444349
0.363049 0.828343 0.426690
0.441505 0.835046 0.441222
0.495379 0.854018 0.437547
0.561656 0.873007 0.434552
0.636657 0.889841 0.434475
0.720220 0.903976 0.440267
0.803906 0.909408 0.453605
0.880675 0.910589 0.472865
0.910666 0.910949 0.488218
0.046400 0.063440 0.159085
0.097425 0.067017 0.164781
0.178101 0.068945 0.178169
0.298743 0.073227 0.214728
0.437204 0.065914 0.233286
0.568553 0.049189 0.227831
0.618975 0.065395 0.223662
0.649452 0.086820 0.228807
0.665223 0.101715 0.232831
0.056507 0.123962 0.207585
0.121453 0.125216 0.214419
0.221991 0.122467 0.222353
0.344762 0.119895 0.229970
0.475800 0.121538 0.233121
0.608952 0.120261 0.233276
0.688322 0.135871 0.238131
0.719744 0.161562 0.247503
0.735408 0.177921 0.256717
0.043954 0.229555 0.236590
0.118776 0.233544 0.235232
0.235294 0.235294 0.235294
0.366967 0.233072 0.233720
0.494868 0.231693 0.233481
0.637059 0.229027 0.233927
0.746653 0.236713 0.237536
0.792656 0.258411 0.258030
0.809226 0.272327 0.272323
0.038865 0.355909 0.241192
0.110655 0.361340 0.232563
0.225750 0.363228 0.225724
0.358215 0.360533 0.220830
0.492530 0.358677 0.230637
0.624055 0.361764 0.237337
0.744493 0.363254 0.243715
0.822852 0.375408 0.267233
0.851836 0.383021 0.284204
0.046684 0.486186 0.248971
0.118700 0.490965 0.236392
0.227448 0.493524 0.226518
0.351631 0.493617 0.220108
0.490248 0.493155 0.219406
0.632938 0.492750 0.215409
0.754811 0.495135 0.242868
0.843461 0.502103 0.274264
0.881162 0.510011 0.301268
0.086431 0.600407 0.279381
0.142333 0.618796 0.254281
0.221146 0.630150 0.221968
0.360204 0.629384 0.234128
0.489576 0.627961 0.228215
0.626868 0.630854 0.230740
0.751386 0.629317 0.264262
0.849612 0.631066 0.294938
0.898439 0.636835 0.323783
0.184136 0.697417 0.350932
0.234437 0.713927 0.329020
0.303770 0.730139 0.302919
0.394797 0.745007 0.283788
0.506151 0.751643 0.267880
0.632049 0.754672 0.267068
0.753228 0.753720 0.310905
0.846994 0.757639 0.377256
0.895229 0.758567 0.400969
0.280567 0.787094 0.429788
0.327310 0.802172 0.409827
0.391461 0.822666 0.391828
0.486352 0.829412 0.404773
0.572854 0.843861 0.392679
0.672931 0.857134 0.392757
0.774332 0.863734 0.402752
0.867953 0.868970 0.425477
0.909981 0.872814 0.456273
0.368820 0.829804 0.500849
0.415976 0.848117 0.488328
0.475231 0.868887 0.475153
0.539270 0.888330 0.466739
0.617206 0.904433 0.458936
0.706003 0.909876 0.457590
0.794584 0.910689 0.463709
0.880892 0.911147 0.480168
0.911051 0.911553 0.495152
0.058931 0.080565 0.259719
0.116535 0.080139 0.266434
0.202155 0.077707 0.287493
0.307910 0.069817 0.308498
0.442153 0.060763 0.334729
0.557117 0.052028 0.331736
0.611599 0.069257 0.318185
0.648669 0.091082 0.313440
0.667237 0.106386 0.312569
0.058075 0.132279 0.301290
0.123988 0.131686 0.314200
0.222457 0.123525 0.333326
0.343116 0.122640 0.343473
0.475178 0.122917 0.352186
0.607210 0.122638 0.355953
0.689357 0.138740 0.348911
0.726829 0.164144 0.343979
0.743244 0.179320 0.343676
0.044204 0.230410 0.349023
0.121484 0.234301 0.354629
0.235550 0.235185 0.362861
0.365069 0.232680 0.364536
0.503238 0.230241 0.366471
0.636291 0.229574 0.364179
0.754779 0.236262 0.364012
0.809350 0.254202 0.362399
0.828628 0.269635 0.367301
0.039023 0.357696 0.363130
0.110592 0.361978 0.361337
0.225497 0.363949 0.363226
0.360784 0.360784 0.360784
0.501389 0.354471 0.357509
0.641054 0.356554 0.359915
0.766268 0.357457 0.360499
0.871495 0.363849 0.364912
0.903634 0.373247 0.373013
0.046242 0.486909 0.369374
0.116421 0.490194 0.360080
0.223333 0.494734 0.356682
0.350602 0.495211 0.349457
0.490970 0.494406 0.344742
0.637422 0.490458 0.346000
0.754687 0.494398 0.365517
0.866199 0.496690 0.371331
0.906263 0.500144 0.381888
0.071453 0.607760 0.381906
0.114633 0.628384 0.360542
0.218601 0.633125 0.351785
0.354187 0.630358 0.353176
0.485524 0.629451 0.347848
0.625401 0.628877 0.348281
0.753486 0.626532 0.368084
0.872917 0.630947 0.378762
0.909972 0.625345 0.387621
0.158251 0.708719 0.431743
0.204389 0.727495 0.411967
0.272050 0.745184 0.388086
0.369097 0.756496 0.370437
0.493097 0.760169 0.361965
0.625325 0.760279 0.359270
0.755354 0.758198 0.358116
0.870191 0.757697 0.396489
0.910246 0.755562 0.421011
0.253776 0.796983 0.495205
0.297879 0.816248 0.477762
0.386155 0.828161 0.478861
0.454532 0.848482 0.455081
0.539198 0.862856 0.430061
0.647114 0.872770 0.414064
0.764965 0.876767 0.415008
0.878422 0.879649 0.436712
0.910943 0.873008 0.467510
0.346994 0.841900 0.559777
0.390960 0.862072 0.547348
0.445559 0.884009 0.530750
0.511082 0.904037 0.510974
0.587935 0.910284 0.494156
0.677211 0.911030 0.478867
0.776802 0.911569 0.474845
0.876056 0.912206 0.487131
0.911621 0.912593 0.501841
0.078080 0.102384 0.384244
0.138976 0.094867 0.390684
0.221586 0.084819 0.407159
0.324164 0.071895 0.428277
0.441097 0.057016 0.440579
0.530759 0.060142 0.424937
0.591098 0.076928 0.405578
0.635998 0.099073 0.395035
0.658769 0.114294 0.390633
0.058298 0.140895 0.416968
0.124949 0.133899 0.431353
0.222934 0.123596 0.451059
0.342899 0.123242 0.462190
0.473238 0.124067 0.472543
0.594415 0.127149 0.471969
0.670196 0.144621 0.452758
0.717598 0.171036 0.439494
0.738948 0.185963 0.433212
0.044542 0.232201 0.465152
0.122291 0.233324 0.470463
0.233556 0.234762 0.483021
0.361408 0.233164 0.494914
0.497964 0.231457 0.498664
0.631227 0.231292 0.496296
0.745829 0.236012 0.488300
0.808151 0.256566 0.476547
0.831828 0.272096 0.473169
0.041797 0.356909 0.487259
0.117359 0.360037 0.492091
0.227409 0.360667 0.499845
0.358593 0.359954 0.504687
0.499844 0.354220 0.500344
0.638993 0.353750 0.498765
0.768867 0.356672 0.497527
0.884618 0.360362 0.495772
0.910400 0.369555 0.493414
0.048841 0.485394 0.492654
0.118521 0.489377 0.489785
0.224989 0.493433 0.494586
0.349068 0.494381 0.495594
0.498039 0.498039 0.498039
0.645387 0.487584 0.491186
0.771480 0.487951 0.491668
0.891225 0.490250 0.493437
0.912608 0.489826 0.489178
0.065429 0.612138 0.499220
0.103017 0.631596 0.491556
0.226959 0.629444 0.492716
0.348751 0.630208 0.488615
0.482657 0.630464 0.483701
0.626600 0.628761 0.482446
0.759053 0.628206 0.494447
0.877179 0.628905 0.499052
0.910617 0.622544 0.498536
0.143563 0.716386 0.529156
0.185185 0.734338 0.515173
0.255194 0.752017 0.500643
0.362327 0.759502 0.493901
0.488460 0.762124 0.487401
0.620802 0.761160 0.482203
0.755711 0.759238 0.480918
0.878286 0.758144 0.500816
0.911194 0.748043 0.501241
0.235570 0.807555 0.577454
0.274761 0.828795 0.562733
0.354527 0.841633 0.557745
0.414864 0.865473 0.530070
0.501453 0.880906 0.501666
0.625257 0.885780 0.493501
0.754759 0.885787 0.488897
0.879491 0.883312 0.487386
0.912363 0.870499 0.504191
0.328740 0.852200 0.628648
0.368489 0.873876 0.617869
0.416773 0.898073 0.601314
0.475035 0.910156 0.577399
0.545122 0.911443 0.545574
0.637035 0.913080 0.517669
0.751881 0.914259 0.503819
0.868550 0.914578 0.505093
0.912320 0.914475 0.514635
0.092269 0.119949 0.495238
0.153216 0.107664 0.507532
0.231035 0.090584 0.520476
0.319701 0.074271 0.526098
0.411060 0.061663 0.516927
0.497179 0.072375 0.497055
0.563275 0.088714 0.479075
0.615156 0.110622 0.466075
0.642994 0.125699 0.461199
0.057373 0.144683 0.538946
0.122439 0.130935 0.552490
0.221927 0.122968 0.565998
0.340968 0.125804 0.578958
0.459854 0.127835 0.578843
0.563136 0.138768 0.563193
0.639618 0.158422 0.541258
0.695131 0.182014 0.524034
0.722122 0.196379 0.516435
0.044896 0.231683 0.579022
0.126204 0.235453 0.591788
0.234288 0.234708 0.603146
0.359164 0.236030 0.618597
0.493041 0.234717 0.626992
0.622145 0.235540 0.622488
0.723585 0.245706 0.604525
0.788280 0.264979 0.581630
0.816891 0.279916 0.573138
0.046794 0.354266 0.605008
0.123112 0.358034 0.614101
0.234333 0.360008 0.627244
0.359954 0.360402 0.635978
0.498177 0.358285 0.639163
0.634011 0.356012 0.633684
0.761865 0.356058 0.629829
0.880675 0.359362 0.626735
0.909925 0.371654 0.617927
0.055305 0.483270 0.612939
0.128090 0.490938 0.620286
0.231198 0.493244 0.628465
0.351288 0.492947 0.636138
0.489555 0.489641 0.652475
0.640176 0.485431 0.640636
0.773474 0.488391 0.634433
0.892312 0.491130 0.631295
0.912764 0.486837 0.618781
0.073786 0.611554 0.621791
0.122015 0.626623 0.627223
0.236085 0.626330 0.627279
0.351745 0.631147 0.631565
0.482012 0.630825 0.630212
0.635294 0.635294 0.635294
0.769731 0.624678 0.627298
0.895419 0.624932 0.627157
0.915000 0.614676 0.615142
0.143075 0.717279 0.635423
0.183738 0.736965 0.631825
0.252880 0.753067 0.627573
0.360833 0.759387 0.627302
0.483034 0.761711 0.623704
0.619131 0.763111 0.619417
0.756544 0.758278 0.614030
0.883326 0.758212 0.626673
0.911647 0.746795 0.620782
0.226754 0.813265 0.669062
0.262859 0.836639 0.661155
0.335884 0.852222 0.656968
0.386784 0.875805 0.635796
0.492959 0.884232 0.627335
0.621187 0.887295 0.620421
0.752582 0.888348 0.615795
0.879285 0.883848 0.611704
0.913070 0.869194 0.614583
0.318306 0.860595 0.707304
0.354079 0.883216 0.699411
0.395232 0.906516 0.686165
0.441595 0.910988 0.662018
0.508115 0.913395 0.631887
0.620802 0.914730 0.619861
0.741640 0.915344 0.612843
0.864509 0.915444 0.610177
0.912554 0.915403 0.609928
0.089488 0.125676 0.550161
0.144534 0.113030 0.561029
0.213332 0.095687 0.569822
0.290218 0.079860 0.571114
0.374359 0.073064 0.563963
0.460314 0.085393 0.550489
0.535645 0.104180 0.535152
0.591787 0.124969 0.525496
0.623219 0.139343 0.521563
0.053161 0.143601 0.603853
0.113064 0.128292 0.620540
0.214824 0.132560 0.638580
0.321872 0.137062 0.645884
0.430062 0.145334 0.642197
0.526077 0.158084 0.627045
0.606996 0.175854 0.606748
0.666494 0.194480 0.589653
0.699345 0.209691 0.584981
0.050744 0.231248 0.656617
0.129456 0.236739 0.679852
0.235521 0.239487 0.703581
0.352077 0.238194 0.717108
0.478262 0.242062 0.723095
0.594460 0.249464 0.712769
0.689575 0.261860 0.689391
0.756804 0.278388 0.665218
0.791680 0.293685 0.657643
0.059666 0.352638 0.695248
0.131969 0.355231 0.716315
0.238700 0.360333 0.738207
0.358942 0.359523 0.750638
0.493565 0.361666 0.760327
0.626952 0.358886 0.756822
0.754196 0.363145 0.755213
0.854423 0.369984 0.741246
0.892260 0.382891 0.725995
0.071350 0.479078 0.712784
0.139509 0.487968 0.733673
0.240190 0.491894 0.750516
0.354413 0.493264 0.769779
0.489795 0.489935 0.796814
0.631912 0.490197 0.770540
0.767197 0.490423 0.767161
0.887688 0.490798 0.761946
0.912189 0.488920 0.746985
0.100860 0.604962 0.726464
0.152096 0.619130 0.742428
0.243345 0.623476 0.751821
0.357066 0.627938 0.761512
0.486531 0.628962 0.768194
0.628741 0.628528 0.773481
0.768226 0.623763 0.768738
0.895250 0.623634 0.764466
0.914975 0.614880 0.748242
0.158962 0.716316 0.737785
0.195977 0.733760 0.743846
0.262743 0.753636 0.755587
0.362336 0.758299 0.758011
0.484120 0.761883 0.760898
0.618908 0.762705 0.763082
0.768627 0.768627 0.768627
0.893427 0.756310 0.756304
0.916361 0.739669 0.739671
0.232252 0.817246 0.763714
0.296647 0.827378 0.763419
0.332638 0.853727 0.763066
0.382927 0.879614 0.760311
0.491116 0.886311 0.758776
0.615369 0.887368 0.753567
0.747120 0.886852 0.746928
0.880970 0.883958 0.745256
0.913816 0.868567 0.738018
0.316806 0.865508 0.789065
0.349069 0.887450 0.785404
0.385799 0.908625 0.780479
0.423834 0.911446 0.764649
0.498377 0.914160 0.749276
0.613550 0.915430 0.743209
0.736392 0.916037 0.735732
0.861943 0.915865 0.732195
0.912598 0.915573 0.730098
0.078963 0.126430 0.574656
0.129566 0.115061 0.586615
0.191498 0.099775 0.595724
0.260637 0.085072 0.599832
0.344516 0.086835 0.599911
0.428180 0.101041 0.593035
0.504410 0.119796 0.583010
0.570174 0.139741 0.571516
0.602442 0.152067 0.567860
0.047201 0.141576 0.631597
0.110043 0.137270 0.648390
0.201158 0.143920 0.665442
0.297805 0.151069 0.675223
0.396577 0.162069 0.677692
0.489691 0.175170 0.670157
0.572221 0.192321 0.657647
0.641167 0.210989 0.642942
0.675151 0.222977 0.637194
0.060597 0.234578 0.693734
0.137686 0.241899 0.718943
0.232043 0.246576 0.743783
0.337919 0.250094 0.761491
0.449913 0.256029 0.768718
0.556352 0.264450 0.762076
0.649158 0.277977 0.746251
0.725693 0.295662 0.727470
0.760855 0.305474 0.716725
0.079747 0.348479 0.745132
0.151947 0.355392 0.774135
0.247425 0.362038 0.807381
0.360355 0.362760 0.833178
0.485341 0.364268 0.848194
0.611611 0.367675 0.850333
0.724820 0.373252 0.838904
0.816180 0.387200 0.818625
0.856176 0.396686 0.802981
0.101427 0.471849 0.782250
0.165486 0.482204 0.812495
0.252375 0.488788 0.845154
0.358606 0.492036 0.888002
0.490812 0.491732 0.903964
0.629401 0.494249 0.886977
0.760922 0.494069 0.886513
0.878325 0.495025 0.880398
0.911073 0.497543 0.865336
0.134263 0.597694 0.807778
0.184427 0.610818 0.831407
0.259932 0.622636 0.860918
0.365760 0.627002 0.877688
0.490632 0.626402 0.888809
0.626729 0.626896 0.894636
0.764163 0.626021 0.896600
0.889147 0.624569 0.892062
0.914048 0.617768 0.874252
0.182609 0.712181 0.826477
0.223048 0.730999 0.843908
0.278526 0.747457 0.863790
0.369978 0.756026 0.878652
0.489431 0.759072 0.888430
0.621182 0.760531 0.894247
0.758006 0.757383 0.897159
0.891720 0.755442 0.894055
0.916209 0.740433 0.873826
0.243097 0.814180 0.848178
0.310327 0.826925 0.853191
0.346751 0.850821 0.864313
0.392806 0.876302 0.878970
0.493204 0.885127 0.886418
0.615564 0.887713 0.888417
0.746135 0.886854 0.886874
0.894118 0.894118 0.894118
0.915197 0.865871 0.866273
0.323286 0.867358 0.867609
0.355618 0.889178 0.871042
0.392287 0.909053 0.878035
0.426989 0.911489 0.875605
0.496646 0.914226 0.868514
0.609221 0.915544 0.866745
0.731630 0.916178 0.864096
0.859283 0.915985 0.862174
0.912410 0.915545 0.858196
0.067399 0.126549 0.593668
0.114259 0.116343 0.604356
0.173347 0.102118 0.614671
0.239197 0.087943 0.621040
0.323446 0.096682 0.624842
0.405557 0.112528 0.622033
0.481561 0.130842 0.615429
0.548278 0.149896 0.606134
0.590260 0.162788 0.596736
0.038543 0.140389 0.650376
0.104958 0.143240 0.667796
0.188483 0.150913 0.683455
0.281975 0.162856 0.697778
0.374557 0.173096 0.701648
0.465317 0.187611 0.699708
0.546905 0.203741 0.690947
0.616996 0.221389 0.679120
0.661170 0.234130 0.668390
0.064019 0.236990 0.717135
0.136539 0.244674 0.739369
0.225206 0.252085 0.763490
0.324003 0.258652 0.782347
0.429628 0.267579 0.793462
0.530205 0.276695 0.791216
0.621246 0.290333 0.781133
0.698002 0.306078 0.765661
0.743462 0.317028 0.751690
0.091706 0.349445 0.776379
0.160870 0.357377 0.803417
0.249850 0.364530 0.835972
0.355610 0.370399 0.865876
0.470934 0.372711 0.883471
0.588258 0.377259 0.887754
0.696091 0.385721 0.879862
0.784978 0.399226 0.861469
0.834223 0.409042 0.844084
0.117967 0.469978 0.822675
0.179496 0.479786 0.851852
0.263154 0.489172 0.890135
0.364225 0.493216 0.919245
0.481333 0.489155 0.919908
0.609542 0.491287 0.920050
0.733157 0.491286 0.920053
0.849126 0.499665 0.918360
0.909086 0.506823 0.910768
0.150629 0.592755 0.855970
0.202430 0.605670 0.883098
0.273377 0.618261 0.917989
0.365347 0.618760 0.920127
0.482192 0.618607 0.921223
0.609616 0.617838 0.921569
0.737672 0.616468 0.921569
0.858062 0.615324 0.921569
0.911452 0.616231 0.915888
0.195884 0.708468 0.881792
0.237478 0.725043 0.902284
0.293246 0.743635 0.921569
0.370066 0.745213 0.921569
0.481249 0.744021 0.921569
0.604359 0.742405 0.921569
0.733049 0.739853 0.921569
0.857917 0.736726 0.921569
0.912368 0.737626 0.919870
0.283112 0.803744 0.898683
0.319775 0.825503 0.912451
0.359412 0.847573 0.921569
0.399492 0.862812 0.921569
0.482412 0.864414 0.921569
0.601349 0.864925 0.921569
0.725632 0.864080 0.921569
0.851845 0.860578 0.921569
0.912256 0.859679 0.920043
0.327046 0.867305 0.921569
0.360646 0.888304 0.921569
0.398056 0.908534 0.921569
0.432145 0.911071 0.921569
0.492959 0.913038 0.921569
0.604071 0.913795 0.921569
0.722019 0.914130 0.921569
0.847875 0.913879 0.921569
0.921569 0.921569 0.921569
