HollywoodCinema_Ultimate_v6.8_3.1-96IRE_Instagram8bit_NeutralShadows.cube
TITLE "Hollywood Cinema Ultimate v6.8 3.1-96IRE_Instagram8bit_TVRange - Neutral Shadows - Warm 80%"
LUT_3D_SIZE 5
0.031373 0.031373 0.031373
0.173972 0.068187 0.068313
0.437289 0.073271 0.073171
0.595375 0.066419 0.066362
0.638644 0.100937 0.101338
0.050749 0.227678 0.051027
0.232559 0.233674 0.037717
0.481427 0.236414 0.047576
0.662353 0.255009 0.087401
0.724181 0.287897 0.156699
0.067106 0.474078 0.066680
0.239030 0.488864 0.046788
0.489908 0.490176 0.048995
0.701293 0.498103 0.138191
0.806416 0.517648 0.219976
0.240268 0.671307 0.240032
0.360990 0.700853 0.220412
0.542332 0.725535 0.216472
0.736890 0.737602 0.294190
0.853670 0.753520 0.377880
0.385600 0.816980 0.385931
0.512317 0.842696 0.412116
0.652301 0.880398 0.420480
0.820386 0.919120 0.458498
0.932157 0.932487 0.504196
0.046400 0.063440 0.159085
0.178101 0.068945 0.178169
0.437204 0.065914 0.233286
0.618975 0.065395 0.223662
0.665223 0.101715 0.232831
0.043954 0.229555 0.236590
0.235294 0.235294 0.235294
0.494868 0.231693 0.233481
0.746653 0.236713 0.237536
0.809226 0.272327 0.272323
0.046684 0.486186 0.248971
0.227448 0.493524 0.226518
0.490248 0.493155 0.219406
0.754811 0.495135 0.242868
0.881162 0.510011 0.301268
0.184136 0.697417 0.350932
0.303770 0.730139 0.302919
0.506151 0.751643 0.267880
0.753228 0.753720 0.310905
0.895411 0.758749 0.401151
0.368820 0.829804 0.500849
0.475291 0.868947 0.475213
0.622097 0.909324 0.463827
0.808633 0.924738 0.477758
0.933587 0.934089 0.517688
0.078080 0.102384 0.384244
0.221586 0.084819 0.407159
0.441097 0.057016 0.440579
0.591098 0.076928 0.405578
0.658769 0.114294 0.390633
0.044542 0.232201 0.465152
0.233556 0.234762 0.483021
0.497964 0.231457 0.498664
0.745829 0.236012 0.488300
0.831828 0.272096 0.473169
0.048841 0.485394 0.492654
0.224989 0.493433 0.494586
0.498039 0.498039 0.498039
0.771480 0.487951 0.491668
0.912608 0.489826 0.489178
0.143563 0.716386 0.529156
0.255194 0.752017 0.500643
0.488460 0.762124 0.487401
0.755711 0.759238 0.480918
0.911484 0.748333 0.501531
0.328740 0.852200 0.628648
0.417620 0.898920 0.602161
0.549386 0.915707 0.549838
0.764964 0.927342 0.516902
0.936167 0.938322 0.538482
0.089488 0.125676 0.550161
0.213332 0.095687 0.569822
0.374359 0.073064 0.563963
0.535645 0.104180 0.535152
0.623219 0.139343 0.521563
0.050744 0.231248 0.656617
0.235521 0.239487 0.703581
0.478262 0.242062 0.723095
0.689575 0.261860 0.689391
0.791680 0.293685 0.657643
0.071350 0.479078 0.712784
0.240190 0.491894 0.750516
0.489795 0.489935 0.796814
0.767197 0.490423 0.767161
0.912189 0.488920 0.746985
0.158962 0.716316 0.737785
0.262743 0.753636 0.755587
0.484120 0.761883 0.760898
0.769080 0.769080 0.769080
0.917329 0.740637 0.740639
0.316806 0.865508 0.789065
0.387895 0.910721 0.782575
0.503701 0.919484 0.754600
0.753609 0.933255 0.752950
0.942584 0.945559 0.760084
0.067399 0.126549 0.593668
0.173347 0.102118 0.614671
0.323446 0.096682 0.624842
0.481561 0.130842 0.615429
0.590260 0.162788 0.596736
0.064019 0.236990 0.717135
0.225206 0.252085 0.763490
0.429628 0.267579 0.793462
0.621246 0.290333 0.781133
0.743462 0.317028 0.751690
0.117967 0.469978 0.822675
0.263154 0.489172 0.890135
0.481333 0.489155 0.919908
0.733157 0.491286 0.920053
0.909086 0.506823 0.910768
0.195884 0.708468 0.881792
0.293246 0.743635 0.924483
0.481249 0.744021 0.922734
0.733061 0.739864 0.927631
0.914247 0.739505 0.921749
0.327283 0.867542 0.921890
0.402110 0.912588 0.940246
0.500452 0.920531 0.932005
0.742374 0.934485 0.944743
0.960000 0.960000 0.960000
